; G-Code generated by Simplify3D(R) Version 4.0.1
; Sep 5, 2018 at 9:45:11 PM
; Settings Summary
;   processName,Process1
;   applyToModels,Model1
;   profileName,Ender-2 (PLA)
;   profileVersion,2018-08-08 01:23:10
;   baseProfile,Wanhao Duplicator i3 (modified)
;   printMaterial,PLA
;   printQuality,Medium
;   printExtruders,
;   extruderName,Primary Extruder
;   extruderToolheadNumber,0
;   extruderDiameter,0.4
;   extruderAutoWidth,0
;   extruderWidth,0.45
;   extrusionMultiplier,1
;   extruderUseRetract,1
;   extruderRetractionDistance,4.6
;   extruderExtraRestartDistance,0
;   extruderRetractionZLift,0
;   extruderRetractionSpeed,6000
;   extruderUseCoasting,0
;   extruderCoastingDistance,0
;   extruderUseWipe,0
;   extruderWipeDistance,1
;   primaryExtruder,0
;   layerHeight,0.16
;   topSolidLayers,4
;   bottomSolidLayers,4
;   perimeterOutlines,3
;   printPerimetersInsideOut,1
;   startPointOption,3
;   startPointOriginX,12
;   startPointOriginY,12
;   sequentialIslands,0
;   spiralVaseMode,0
;   firstLayerHeightPercentage,70
;   firstLayerWidthPercentage,140
;   firstLayerUnderspeed,0.4
;   useRaft,0
;   raftExtruder,0
;   raftTopLayers,3
;   raftBaseLayers,2
;   raftOffset,3
;   raftSeparationDistance,0.14
;   raftTopInfill,100
;   aboveRaftSpeedMultiplier,0.3
;   useSkirt,1
;   skirtExtruder,0
;   skirtLayers,1
;   skirtOutlines,5
;   skirtOffset,12
;   usePrimePillar,0
;   primePillarExtruder,999
;   primePillarWidth,12
;   primePillarLocation,7
;   primePillarSpeedMultiplier,1
;   useOozeShield,0
;   oozeShieldExtruder,999
;   oozeShieldOffset,2
;   oozeShieldOutlines,1
;   oozeShieldSidewallShape,1
;   oozeShieldSidewallAngle,30
;   oozeShieldSpeedMultiplier,1
;   infillExtruder,0
;   internalInfillPattern,Fast Honeycomb
;   externalInfillPattern,Rectilinear
;   infillPercentage,20
;   outlineOverlapPercentage,10
;   infillExtrusionWidthPercentage,110
;   minInfillLength,5
;   infillLayerInterval,1
;   internalInfillAngles,0
;   overlapInternalInfillAngles,0
;   externalInfillAngles,0,90
;   generateSupport,0
;   supportExtruder,0
;   supportInfillPercentage,30
;   supportExtraInflation,1
;   supportBaseLayers,0
;   denseSupportExtruder,0
;   denseSupportLayers,3
;   denseSupportInfillPercentage,100
;   supportLayerInterval,2
;   supportHorizontalPartOffset,0.3
;   supportUpperSeparationLayers,1
;   supportLowerSeparationLayers,1
;   supportType,1
;   supportGridSpacing,99
;   maxOverhangAngle,50
;   supportAngles,0,45
;   temperatureName,Primary Extruder,Heated Bed
;   temperatureNumber,0,0
;   temperatureSetpointCount,1,1
;   temperatureSetpointLayers,1,1
;   temperatureSetpointTemperatures,195,60
;   temperatureStabilizeAtStartup,1,1
;   temperatureHeatedBed,0,1
;   temperatureRelayBetweenLayers,1,0
;   temperatureRelayBetweenLoops,0,0
;   fanLayers,0,1,2,3,4,5,6,7,8,9,10,11,12,13,14,15,16,17,18,19
;   fanSpeeds,5,10,15,20,25,30,35,40,45,50,55,60,65,70,75,80,85,90,95,100
;   blipFanToFullPower,1
;   adjustSpeedForCooling,0
;   minSpeedLayerTime,15
;   minCoolingSpeedSlowdown,40
;   increaseFanForCooling,0
;   minFanLayerTime,20
;   maxCoolingFanSpeed,100
;   increaseFanForBridging,1
;   bridgingFanSpeed,80
;   use5D,1
;   relativeEdistances,0
;   allowEaxisZeroing,1
;   independentExtruderAxes,0
;   includeM10123,0
;   stickySupport,1
;   applyToolheadOffsets,0
;   gcodeXoffset,0
;   gcodeYoffset,0
;   gcodeZoffset,0
;   overrideMachineDefinition,1
;   machineTypeOverride,0
;   strokeXoverride,160
;   strokeYoverride,150
;   strokeZoverride,205
;   originOffsetXoverride,0
;   originOffsetYoverride,0
;   originOffsetZoverride,0
;   homeXdirOverride,-1
;   homeYdirOverride,-1
;   homeZdirOverride,-1
;   flipXoverride,1
;   flipYoverride,-1
;   flipZoverride,1
;   toolheadOffsets,0,0|0,0|0,0|0,0|0,0|0,0
;   overrideFirmwareConfiguration,1
;   firmwareTypeOverride,RepRap (Marlin/Repetier/Sprinter)
;   GPXconfigOverride,r2
;   baudRateOverride,115200
;   overridePrinterModels,1
;   printerModelsOverride
;   startingGcode,G28 ; home all axes
;   layerChangeGcode,
;   retractionGcode,
;   toolChangeGcode,
;   endingGcode,G1 Y150,M104 S0 ; turn off extruder,M140 S0 ; turn off bed,M106 S0 ; turn off fan,M84 ; disable motors
;   exportFileFormat,gcode
;   celebration,0
;   celebrationSong,Star Wars
;   postProcessing,
;   defaultSpeed,1998
;   outlineUnderspeed,0.33
;   solidInfillUnderspeed,1
;   supportUnderspeed,0.8
;   rapidXYspeed,2700
;   rapidZspeed,960
;   minBridgingArea,50
;   bridgingExtraInflation,0
;   bridgingExtrusionMultiplier,1
;   bridgingSpeedMultiplier,1
;   useFixedBridgingAngle,0
;   fixedBridgingAngle,0
;   applyBridgingToPerimeters,0
;   filamentDiameters,1.75|1.75|1.75|1.75|1.75|1.75
;   filamentPricesPerKg,12|46|46|46|46|46
;   filamentDensities,1.25|1.25|1.25|1.25|1.25|1.25
;   useMinPrintHeight,0
;   minPrintHeight,6
;   useMaxPrintHeight,0
;   maxPrintHeight,5
;   useDiaphragm,0
;   diaphragmLayerInterval,20
;   robustSlicing,0
;   mergeAllIntoSolid,0
;   onlyRetractWhenCrossingOutline,1
;   retractBetweenLayers,0
;   useRetractionMinTravel,0
;   retractionMinTravel,3
;   retractWhileWiping,0
;   onlyWipeOutlines,0
;   avoidCrossingOutline,0
;   maxMovementDetourFactor,300
;   toolChangeRetractionDistance,12
;   toolChangeExtraRestartDistance,-0.5
;   toolChangeRetractionSpeed,600
;   externalThinWallType,0
;   internalThinWallType,0
;   thinWallAllowedOverlapPercentage,15
;   singleExtrusionMinLength,1
;   singleExtrusionMinPrintingWidthPercentage,50
;   singleExtrusionMaxPrintingWidthPercentage,200
;   singleExtrusionEndpointExtension,0.2
;   horizontalSizeCompensation,0
G90
M82
M106 S255
G4 P500
M106 S25
M140 S60
M190 S60
M104 S195 T0
M109 S195 T0
G28 ; home all axes
G92 E0
G1 E-4.6000 F6000
G1 Z0.112 F960
; process Process1
; layer 1, Z = 0.112
M105
T0
; tool H0.160 W0.630
; skirt
G1 X45.554 Y58.173 F2700
G1 E0.0000 F1800
G92 E0
G1 X46.627 Y57.322 E0.0574 F799
G1 X46.714 Y57.260 E0.0619
G1 X48.078 Y56.395 E0.1295
G1 X48.159 Y56.349 E0.1335
G1 X49.229 Y55.801 E0.1838
G1 X49.314 Y55.763 E0.1877
G1 X50.744 Y55.191 E0.2523
G1 X50.838 Y55.158 E0.2565
G1 X52.070 Y54.801 E0.3102
G1 X52.167 Y54.778 E0.3144
G1 X53.604 Y54.511 E0.3756
G1 X53.665 Y54.502 E0.3782
G1 X54.463 Y54.404 E0.4119
G1 X54.525 Y54.398 E0.4145
G1 X78.802 Y52.935 E1.4338
G1 X78.828 Y52.934 E1.4349
G1 X79.163 Y52.922 E1.4489
G1 X79.190 Y52.922 E1.4500
G1 X80.455 Y52.911 E1.5031
G1 X80.484 Y52.911 E1.5042
G1 X80.847 Y52.918 E1.5195
G1 X80.875 Y52.919 E1.5207
G1 X82.044 Y52.974 E1.5697
G1 X82.081 Y52.976 E1.5713
G1 X82.568 Y53.018 E1.5917
G1 X82.606 Y53.021 E1.5933
G1 X84.554 Y53.261 E1.6756
G1 X84.597 Y53.267 E1.6774
G1 X85.149 Y53.359 E1.7009
G1 X85.192 Y53.367 E1.7027
G1 X86.760 Y53.698 E1.7699
G1 X86.793 Y53.706 E1.7713
G1 X87.205 Y53.807 E1.7890
G1 X87.237 Y53.815 E1.7904
G1 X88.408 Y54.144 E1.8414
G1 X88.436 Y54.152 E1.8426
G1 X88.793 Y54.263 E1.8583
G1 X88.821 Y54.273 E1.8595
G1 X90.069 Y54.701 E1.9148
G1 X90.100 Y54.713 E1.9162
G1 X90.502 Y54.866 E1.9342
G1 X90.533 Y54.878 E1.9356
G1 X91.898 Y55.450 E1.9977
G1 X91.928 Y55.464 E1.9991
G1 X92.318 Y55.642 E2.0170
G1 X92.348 Y55.657 E2.0184
G1 X93.461 Y56.212 E2.0705
G1 X93.487 Y56.225 E2.0718
G1 X93.824 Y56.406 E2.0878
G1 X93.850 Y56.420 E2.0890
G1 X94.972 Y57.065 E2.1433
G1 X94.998 Y57.081 E2.1445
G1 X95.322 Y57.279 E2.1605
G1 X95.347 Y57.295 E2.1617
G1 X96.381 Y57.973 E2.2135
G1 X96.405 Y57.989 E2.2147
G1 X96.701 Y58.195 E2.2298
G1 X96.723 Y58.211 E2.2310
G1 X97.675 Y58.912 E2.2805
G1 X97.702 Y58.933 E2.2820
G1 X98.049 Y59.208 E2.3005
G1 X98.076 Y59.230 E2.3020
G1 X99.313 Y60.279 E2.3699
G1 X99.338 Y60.301 E2.3713
G1 X99.659 Y60.593 E2.3895
G1 X99.684 Y60.616 E2.3909
G1 X100.547 Y61.453 E2.4413
G1 X100.568 Y61.474 E2.4426
G1 X100.830 Y61.743 E2.4583
G1 X100.850 Y61.764 E2.4595
G1 X101.740 Y62.733 E2.5146
G1 X101.762 Y62.758 E2.5161
G1 X102.044 Y63.086 E2.5342
G1 X102.065 Y63.112 E2.5356
G1 X103.020 Y64.301 E2.5995
G1 X103.042 Y64.328 E2.6010
G1 X103.307 Y64.684 E2.6196
G1 X103.328 Y64.712 E2.6210
G1 X104.100 Y65.820 E2.6776
G1 X104.119 Y65.848 E2.6790
G1 X104.354 Y66.211 E2.6971
G1 X104.371 Y66.239 E2.6985
G1 X105.362 Y67.885 E2.7791
G1 X105.420 Y67.996 E2.7843
G1 X106.074 Y69.465 E2.8517
G1 X106.117 Y69.582 E2.8569
G1 X106.695 Y71.482 E2.9401
G1 X106.723 Y71.600 E2.9452
G1 X106.996 Y73.135 E3.0106
G1 X107.010 Y73.255 E3.0156
G1 X107.106 Y74.990 E3.0884
G1 X107.106 Y75.103 E3.0932
G1 X107.024 Y76.560 E3.1543
G1 X107.012 Y76.673 E3.1591
G1 X106.718 Y78.404 E3.2327
G1 X106.695 Y78.507 E3.2371
G1 X106.329 Y79.815 E3.2940
G1 X106.296 Y79.915 E3.2984
G1 X105.788 Y81.199 E3.3563
G1 X105.756 Y81.271 E3.3596
G1 X105.305 Y82.191 E3.4025
G1 X105.267 Y82.261 E3.4059
G1 X104.501 Y83.558 E3.4690
G1 X104.483 Y83.586 E3.4704
G1 X104.258 Y83.941 E3.4880
G1 X104.240 Y83.968 E3.4894
G1 X103.507 Y85.041 E3.5438
G1 X103.488 Y85.069 E3.5453
G1 X103.230 Y85.422 E3.5636
G1 X103.209 Y85.449 E3.5650
G1 X102.264 Y86.652 E3.6291
G1 X102.242 Y86.678 E3.6305
G1 X101.964 Y87.009 E3.6487
G1 X101.942 Y87.035 E3.6501
G1 X101.087 Y87.986 E3.7037
G1 X101.068 Y88.006 E3.7048
G1 X100.829 Y88.258 E3.7194
G1 X100.810 Y88.278 E3.7205
G1 X100.020 Y89.067 E3.7673
G1 X99.997 Y89.089 E3.7687
G1 X99.698 Y89.370 E3.7859
G1 X99.674 Y89.391 E3.7872
G1 X98.539 Y90.391 E3.8506
G1 X98.514 Y90.412 E3.8519
G1 X98.199 Y90.672 E3.8691
G1 X98.174 Y90.692 E3.8704
G1 X97.282 Y91.383 E3.9177
G1 X97.259 Y91.400 E3.9189
G1 X96.959 Y91.620 E3.9345
G1 X96.935 Y91.636 E3.9357
G1 X95.784 Y92.427 E3.9942
G1 X95.755 Y92.446 E3.9957
G1 X95.381 Y92.685 E4.0143
G1 X95.351 Y92.703 E4.0157
G1 X94.118 Y93.431 E4.0758
G1 X94.090 Y93.447 E4.0771
G1 X93.722 Y93.649 E4.0947
G1 X93.693 Y93.664 E4.0961
G1 X92.484 Y94.277 E4.1529
G1 X92.456 Y94.291 E4.1542
G1 X92.098 Y94.459 E4.1707
G1 X92.070 Y94.471 E4.1720
G1 X90.884 Y94.985 E4.2262
G1 X90.847 Y95.000 E4.2279
G1 X90.372 Y95.184 E4.2492
G1 X90.335 Y95.197 E4.2509
G1 X88.480 Y95.833 E4.3331
G1 X88.443 Y95.845 E4.3347
G1 X87.964 Y95.989 E4.3556
G1 X87.927 Y95.999 E4.3573
G1 X86.718 Y96.312 E4.4096
G1 X86.692 Y96.318 E4.4107
G1 X86.345 Y96.398 E4.4256
G1 X86.318 Y96.404 E4.4268
G1 X85.143 Y96.640 E4.4770
G1 X85.115 Y96.646 E4.4782
G1 X84.745 Y96.709 E4.4939
G1 X84.716 Y96.714 E4.4952
G1 X83.447 Y96.894 E4.5489
G1 X83.408 Y96.899 E4.5505
G1 X82.916 Y96.949 E4.5713
G1 X82.878 Y96.953 E4.5729
G1 X80.947 Y97.078 E4.6540
G1 X80.905 Y97.080 E4.6557
G1 X80.369 Y97.093 E4.6782
G1 X80.327 Y97.093 E4.6799
G1 X78.928 Y97.069 E4.7386
G1 X78.906 Y97.068 E4.7395
G1 X78.627 Y97.057 E4.7512
G1 X78.606 Y97.056 E4.7521
G1 X54.476 Y95.599 E5.7651
G1 X54.407 Y95.592 E5.7681
G1 X53.515 Y95.476 E5.8058
G1 X53.446 Y95.465 E5.8087
G1 X51.872 Y95.148 E5.8760
G1 X51.770 Y95.122 E5.8804
G1 X50.478 Y94.719 E5.9371
G1 X50.380 Y94.682 E5.9415
G1 X48.995 Y94.087 E6.0047
G1 X48.915 Y94.048 E6.0084
G1 X47.911 Y93.508 E6.0562
G1 X47.835 Y93.462 E6.0599
G1 X46.388 Y92.511 E6.1325
G1 X46.285 Y92.434 E6.1379
G1 X45.031 Y91.360 E6.2070
G1 X44.939 Y91.271 E6.2124
G1 X43.592 Y89.783 E6.2965
G1 X43.524 Y89.699 E6.3011
G1 X42.705 Y88.574 E6.3594
G1 X42.646 Y88.484 E6.3639
G1 X41.904 Y87.195 E6.4262
G1 X41.864 Y87.117 E6.4299
G1 X41.391 Y86.103 E6.4768
G1 X41.357 Y86.022 E6.4804
G1 X40.782 Y84.447 E6.5507
G1 X40.749 Y84.336 E6.5556
G1 X40.400 Y82.889 E6.6180
G1 X40.380 Y82.775 E6.6228
G1 X40.179 Y81.134 E6.6921
G1 X40.174 Y81.073 E6.6947
G1 X40.125 Y80.282 E6.7279
G1 X40.124 Y80.221 E6.7304
G1 X40.124 Y69.923 E7.1620
G1 X40.124 Y69.888 E7.1634
G1 X40.140 Y69.439 E7.1823
G1 X40.141 Y69.405 E7.1837
G1 X40.208 Y68.438 E7.2243
G1 X40.217 Y68.360 E7.2276
G1 X40.364 Y67.363 E7.2699
G1 X40.378 Y67.286 E7.2731
G1 X40.723 Y65.772 E7.3382
G1 X40.751 Y65.672 E7.3426
G1 X41.177 Y64.412 E7.3983
G1 X41.215 Y64.315 E7.4027
G1 X41.907 Y62.801 E7.4724
G1 X41.951 Y62.716 E7.4765
G1 X42.569 Y61.644 E7.5283
G1 X42.621 Y61.563 E7.5323
G1 X43.460 Y60.383 E7.5930
G1 X43.516 Y60.312 E7.5968
G1 X44.264 Y59.435 E7.6451
G1 X44.325 Y59.370 E7.6489
G1 X45.474 Y58.243 E7.7163
G1 X45.554 Y58.173 E7.7208
G1 X45.843 Y58.518 F2700
G92 E0
G1 X46.898 Y57.682 E0.0564 F799
G1 X46.965 Y57.634 E0.0599
G1 X48.310 Y56.781 E0.1266
G1 X48.373 Y56.745 E0.1297
G1 X49.425 Y56.207 E0.1792
G1 X49.491 Y56.177 E0.1822
G1 X50.901 Y55.613 E0.2458
G1 X50.974 Y55.587 E0.2491
G1 X52.185 Y55.236 E0.3019
G1 X52.260 Y55.218 E0.3052
G1 X53.679 Y54.955 E0.3656
G1 X53.727 Y54.948 E0.3677
G1 X54.511 Y54.852 E0.4008
G1 X54.559 Y54.847 E0.4028
G1 X78.826 Y53.384 E1.4216
G1 X78.847 Y53.383 E1.4225
G1 X79.176 Y53.372 E1.4363
G1 X79.196 Y53.371 E1.4372
G1 X80.456 Y53.361 E1.4900
G1 X80.478 Y53.361 E1.4909
G1 X80.835 Y53.368 E1.5058
G1 X80.857 Y53.368 E1.5068
G1 X82.018 Y53.423 E1.5555
G1 X82.048 Y53.425 E1.5567
G1 X82.526 Y53.466 E1.5768
G1 X82.555 Y53.469 E1.5781
G1 X84.494 Y53.707 E1.6599
G1 X84.528 Y53.712 E1.6614
G1 X85.070 Y53.802 E1.6844
G1 X85.104 Y53.808 E1.6858
G1 X86.664 Y54.138 E1.7527
G1 X86.689 Y54.144 E1.7537
G1 X87.094 Y54.243 E1.7712
G1 X87.119 Y54.250 E1.7723
G1 X88.283 Y54.576 E1.8230
G1 X88.305 Y54.583 E1.8239
G1 X88.656 Y54.692 E1.8393
G1 X88.678 Y54.699 E1.8403
G1 X89.919 Y55.126 E1.8953
G1 X89.944 Y55.135 E1.8964
G1 X90.338 Y55.285 E1.9141
G1 X90.362 Y55.294 E1.9152
G1 X91.720 Y55.864 E1.9769
G1 X91.744 Y55.874 E1.9780
G1 X92.127 Y56.050 E1.9956
G1 X92.151 Y56.061 E1.9967
G1 X93.257 Y56.613 E2.0485
G1 X93.277 Y56.624 E2.0495
G1 X93.608 Y56.801 E2.0652
G1 X93.629 Y56.812 E2.0662
G1 X94.745 Y57.454 E2.1202
G1 X94.765 Y57.466 E2.1211
G1 X95.083 Y57.661 E2.1368
G1 X95.103 Y57.673 E2.1377
G1 X96.132 Y58.348 E2.1893
G1 X96.150 Y58.360 E2.1902
G1 X96.441 Y58.562 E2.2051
G1 X96.459 Y58.575 E2.2060
G1 X97.404 Y59.272 E2.2552
G1 X97.426 Y59.289 E2.2564
G1 X97.767 Y59.559 E2.2746
G1 X97.788 Y59.576 E2.2757
G1 X99.019 Y60.620 E2.3434
G1 X99.038 Y60.637 E2.3445
G1 X99.354 Y60.923 E2.3623
G1 X99.373 Y60.941 E2.3634
G1 X100.232 Y61.774 E2.4135
G1 X100.248 Y61.790 E2.4145
G1 X100.505 Y62.054 E2.4299
G1 X100.520 Y62.071 E2.4309
G1 X101.406 Y63.034 E2.4857
G1 X101.423 Y63.054 E2.4868
G1 X101.700 Y63.376 E2.5047
G1 X101.717 Y63.397 E2.5058
G1 X102.667 Y64.580 E2.5694
G1 X102.684 Y64.601 E2.5705
G1 X102.945 Y64.950 E2.5887
G1 X102.960 Y64.972 E2.5899
G1 X103.728 Y66.074 E2.6462
G1 X103.743 Y66.096 E2.6473
G1 X103.974 Y66.452 E2.6651
G1 X103.988 Y66.475 E2.6662
G1 X104.970 Y68.105 E2.7459
G1 X105.015 Y68.192 E2.7500
G1 X105.657 Y69.635 E2.8162
G1 X105.691 Y69.726 E2.8203
G1 X106.261 Y71.600 E2.9024
G1 X106.283 Y71.691 E2.9063
G1 X106.550 Y73.200 E2.9705
G1 X106.561 Y73.294 E2.9745
G1 X106.656 Y75.003 E3.0462
G1 X106.656 Y75.091 E3.0499
G1 X106.576 Y76.522 E3.1100
G1 X106.566 Y76.610 E3.1137
G1 X106.276 Y78.317 E3.1863
G1 X106.258 Y78.397 E3.1897
G1 X105.899 Y79.682 E3.2456
G1 X105.873 Y79.760 E3.2491
G1 X105.373 Y81.025 E3.3060
G1 X105.347 Y81.081 E3.3086
G1 X104.905 Y81.985 E3.3508
G1 X104.875 Y82.040 E3.3534
G1 X104.115 Y83.326 E3.4160
G1 X104.102 Y83.347 E3.4171
G1 X103.880 Y83.696 E3.4344
G1 X103.866 Y83.717 E3.4355
G1 X103.138 Y84.785 E3.4896
G1 X103.123 Y84.806 E3.4907
G1 X102.869 Y85.153 E3.5087
G1 X102.853 Y85.174 E3.5098
G1 X101.912 Y86.371 E3.5737
G1 X101.896 Y86.392 E3.5747
G1 X101.622 Y86.717 E3.5926
G1 X101.605 Y86.737 E3.5936
G1 X100.754 Y87.683 E3.6470
G1 X100.740 Y87.698 E3.6479
G1 X100.504 Y87.947 E3.6622
G1 X100.490 Y87.962 E3.6631
G1 X99.705 Y88.746 E3.7096
G1 X99.687 Y88.763 E3.7106
G1 X99.393 Y89.039 E3.7275
G1 X99.374 Y89.056 E3.7286
G1 X98.244 Y90.051 E3.7917
G1 X98.225 Y90.067 E3.7927
G1 X97.915 Y90.323 E3.8096
G1 X97.896 Y90.339 E3.8106
G1 X97.009 Y91.025 E3.8576
G1 X96.991 Y91.039 E3.8585
G1 X96.696 Y91.254 E3.8739
G1 X96.678 Y91.267 E3.8748
G1 X95.532 Y92.054 E3.9330
G1 X95.510 Y92.069 E3.9342
G1 X95.142 Y92.303 E3.9525
G1 X95.119 Y92.317 E3.9536
G1 X93.892 Y93.042 E4.0133
G1 X93.870 Y93.055 E4.0143
G1 X93.509 Y93.252 E4.0316
G1 X93.487 Y93.264 E4.0327
G1 X92.283 Y93.874 E4.0892
G1 X92.262 Y93.885 E4.0902
G1 X91.910 Y94.050 E4.1065
G1 X91.888 Y94.060 E4.1075
G1 X90.709 Y94.570 E4.1613
G1 X90.681 Y94.582 E4.1626
G1 X90.214 Y94.762 E4.1836
