;FLAVOR:Marlin
;TIME:773
;Filament used: 0.126505m
;Layer height: 0.08
;Generated with Cura_SteamEngine 4.0.0
M140 S60
M105
M190 S60
M104 S210
M105
M109 S210
M82 ;absolute extrusion mode
; Ender 3 Custom Start G-code
G28 ; Home all axes
G92 E0 ; Reset Extruder
G1 Z2.0 F3000 ; Move Z Axis up little to prevent scratching of Heat Bed
G1 X0.1 Y20 Z0.3 F5000.0 ; Move to start position
G1 X0.1 Y120.0 Z0.3 F1500.0 E15 ; Draw the first line
G1 X0.4 Y120.0 Z0.3 F5000.0 ; Move to side a little
G1 X0.4 Y20 Z0.3 F1500.0 E30 ; Draw the second line
G92 E0 ; Reset Extruder
G1 Z10.0 F3000 ; Move Z Axis up little to prevent scratching of Heat Bed
M106 S255 ; Blip fan
G4 P1000 ; Pause 1s
M106 S15 ; Keep fan running at 6% UFN
M83 ;relative extrusion mode
G1 F4200 E-1.8
;LAYER_COUNT:103
;LAYER:0
M106 S20.4
;MESH:stringing.stl
G0 F1680 X77.36 Y88.86 Z0.1
;TYPE:WALL-INNER
G1 F4200 E1.8
G1 F600 X72.64 Y88.86 E0.11185
G1 X72.64 Y61.14 E0.6569
G1 X77.36 Y61.14 E0.11185
G1 X77.36 Y88.86 E0.6569
G0 F1680 X77.816 Y89.316
G1 F600 X72.184 Y89.316 E0.13347
G1 X72.184 Y60.684 E0.67852
G1 X77.816 Y60.684 E0.13347
G1 X77.816 Y89.316 E0.67852
G0 F1680 X78.262 Y89.762
;TYPE:WALL-OUTER
G1 F600 X71.738 Y89.762 E0.1546
G1 X71.738 Y60.238 E0.69966
G1 X78.262 Y60.238 E0.1546
G1 X78.262 Y89.762 E0.69966
G0 F1680 X77.962 Y89.762
G0 X77.761 Y89.261
G0 X77.26 Y88.414
G0 X76.914 Y88.414
;TYPE:SKIN
G1 F600 X73.086 Y88.414 E0.09072
G1 X73.086 Y61.586 E0.63577
G1 X76.914 Y61.586 E0.09072
G1 X76.914 Y88.414 E0.63577
G0 F1680 X77.26 Y88.414
G0 X77.188 Y88.688
G0 X72.812 Y88.688
G0 X72.74 Y87.976
G0 X73.522 Y87.976
G1 F600 X73.788 Y87.976 E0.0063
G1 X73.522 Y87.709 E0.00893
G1 X73.522 Y87.064 E0.01529
G1 X74.433 Y87.976 E0.03055
G1 X75.078 Y87.976 E0.01529
G1 X73.522 Y86.419 E0.05216
G1 X73.522 Y85.774 E0.01529
G1 X75.723 Y87.976 E0.07378
G1 X76.368 Y87.976 E0.01529
G1 X73.522 Y85.129 E0.0954
G1 X73.522 Y84.485 E0.01526
G1 X76.477 Y87.44 E0.09903
G1 X76.477 Y86.795 E0.01529
G1 X73.522 Y83.84 E0.09903
G1 X73.522 Y83.195 E0.01529
G1 X76.477 Y86.15 E0.09903
G1 X76.477 Y85.505 E0.01529
G1 X73.522 Y82.55 E0.09903
G1 X73.522 Y81.905 E0.01529
G1 X76.477 Y84.86 E0.09903
G1 X76.477 Y84.215 E0.01529
G1 X73.522 Y81.26 E0.09903
G1 X73.522 Y80.615 E0.01529
G1 X76.477 Y83.57 E0.09903
G1 X76.477 Y82.925 E0.01529
G1 X73.522 Y79.97 E0.09903
G1 X73.522 Y79.326 E0.01526
G1 X76.477 Y82.281 E0.09903
G1 X76.477 Y81.636 E0.01529
G1 X73.522 Y78.681 E0.09903
G1 X73.522 Y78.036 E0.01529
G1 X76.477 Y80.991 E0.09903
G1 X76.477 Y80.346 E0.01529
G1 X73.522 Y77.391 E0.09903
G1 X73.522 Y76.746 E0.01529
G1 X76.477 Y79.701 E0.09903
G1 X76.477 Y79.056 E0.01529
G1 X73.522 Y76.101 E0.09903
G1 X73.522 Y75.456 E0.01529
G1 X76.477 Y78.411 E0.09903
G1 X76.477 Y77.766 E0.01529
G1 X73.522 Y74.811 E0.09903
G1 X73.522 Y74.167 E0.01526
G1 X76.477 Y77.122 E0.09903
G1 X76.477 Y76.477 E0.01529
G1 X73.522 Y73.522 E0.09903
G1 X73.522 Y72.877 E0.01529
G1 X76.477 Y75.832 E0.09903
G1 X76.477 Y75.187 E0.01529
G1 X73.522 Y72.232 E0.09903
G1 X73.522 Y71.587 E0.01529
G1 X76.477 Y74.542 E0.09903
G1 X76.477 Y73.897 E0.01529
G1 X73.522 Y70.942 E0.09903
G1 X73.522 Y70.297 E0.01529
G1 X76.477 Y73.252 E0.09903
G1 X76.477 Y72.607 E0.01529
G1 X73.522 Y69.652 E0.09903
G1 X73.522 Y69.007 E0.01529
G1 X76.477 Y71.962 E0.09903
G1 X76.477 Y71.318 E0.01526
G1 X73.522 Y68.363 E0.09903
G1 X73.522 Y67.718 E0.01529
G1 X76.477 Y70.673 E0.09903
G1 X76.477 Y70.028 E0.01529
G1 X73.522 Y67.073 E0.09903
G1 X73.522 Y66.428 E0.01529
G1 X76.477 Y69.383 E0.09903
G1 X76.477 Y68.738 E0.01529
G1 X73.522 Y65.783 E0.09903
G1 X73.522 Y65.138 E0.01529
G1 X76.477 Y68.093 E0.09903
G1 X76.477 Y67.448 E0.01529
G1 X73.522 Y64.493 E0.09903
G1 X73.522 Y63.848 E0.01529
G1 X76.477 Y66.803 E0.09903
G1 X76.477 Y66.159 E0.01526
G1 X73.522 Y63.204 E0.09903
G1 X73.522 Y62.559 E0.01529
G1 X76.477 Y65.514 E0.09903
G1 X76.477 Y64.869 E0.01529
G1 X73.631 Y62.023 E0.09538
G1 X74.275 Y62.023 E0.01526
G1 X76.477 Y64.224 E0.07378
G1 X76.477 Y63.579 E0.01529
G1 X74.92 Y62.023 E0.05216
G1 X75.565 Y62.023 E0.01529
G1 X76.477 Y62.934 E0.03055
G1 X76.477 Y62.289 E0.01529
G1 X76.21 Y62.023 E0.00893
G1 X76.476 Y62.023 E0.0063
G0 F1680 X76.476 Y60.884
;MESH:NONMESH
G0 X77.188 Y61.312
G0 X77.55 Y89.05
;TIME_ELAPSED:56.417078
;LAYER:1
M140 S60
G1 F4200 E-1.8
M106 S63.8
;MESH:stringing.stl
G0 F3240 X77.55 Y89.05 Z0.18
;TYPE:WALL-INNER
G1 F4200 E1.8
G1 F900 X72.45 Y89.05 E0.06446
G1 X72.45 Y60.95 E0.35515
G1 X77.55 Y60.95 E0.06446
G1 X77.55 Y89.05 E0.35515
G0 F3240 X77.93 Y89.43
G1 F900 X72.07 Y89.43 E0.07406
G1 X72.07 Y60.57 E0.36476
G1 X77.93 Y60.57 E0.07406
G1 X77.93 Y89.43 E0.36476
G0 F3240 X78.3 Y89.8
;TYPE:WALL-OUTER
G1 F900 X71.7 Y89.8 E0.08342
G1 X71.7 Y60.2 E0.37411
G1 X78.3 Y60.2 E0.08342
G1 X78.3 Y89.8 E0.37411
G0 F3240 X78 Y89.8
G0 X77.882 Y89.382
G0 X77.18 Y88.68
;TYPE:SKIN
G1 F900 X72.82 Y88.68 E0.05511
G1 X72.82 Y61.32 E0.3458
G1 X77.18 Y61.32 E0.05511
G1 X77.18 Y88.68 E0.3458
G0 F3240 X76.819 Y88.318
G1 F900 X76.818 Y88.163 E0.00196
G1 X76.663 Y88.318 E0.00277
G0 F3240 X76.818 Y88.163
G1 F900 X76.818 Y87.626 E0.00679
G1 X76.126 Y88.318 E0.01237
G1 X75.589 Y88.318 E0.00679
G1 X76.818 Y87.088 E0.02198
G1 X76.818 Y86.551 E0.00679
G1 X75.051 Y88.318 E0.03158
G1 X74.514 Y88.318 E0.00679
G1 X76.818 Y86.013 E0.04119
G1 X76.818 Y85.476 E0.00679
G1 X73.976 Y88.318 E0.0508
G1 X73.439 Y88.318 E0.00679
G1 X76.818 Y84.939 E0.0604
G1 X76.818 Y84.401 E0.0068
G1 X73.18 Y88.039 E0.06503
G1 X73.18 Y87.502 E0.00679
G1 X76.818 Y83.864 E0.06503
G1 X76.818 Y83.326 E0.0068
G1 X73.18 Y86.964 E0.06503
G1 X73.18 Y86.427 E0.00679
G1 X76.818 Y82.789 E0.06503
G1 X76.818 Y82.252 E0.00679
G1 X73.18 Y85.89 E0.06503
G1 X73.18 Y85.352 E0.0068
G1 X76.818 Y81.714 E0.06503
G1 X76.818 Y81.177 E0.00679
G1 X73.18 Y84.815 E0.06503
G1 X73.18 Y84.277 E0.0068
G1 X76.818 Y80.639 E0.06503
G1 X76.818 Y80.102 E0.00679
G1 X73.18 Y83.74 E0.06503
G1 X73.18 Y83.203 E0.00679
G1 X76.818 Y79.565 E0.06503
G1 X76.818 Y79.027 E0.0068
G1 X73.18 Y82.665 E0.06503
G1 X73.18 Y82.128 E0.00679
G1 X76.818 Y78.49 E0.06503
G1 X76.818 Y77.952 E0.0068
G1 X73.18 Y81.59 E0.06503
G1 X73.18 Y81.053 E0.00679
G1 X76.818 Y77.415 E0.06503
G1 X76.818 Y76.878 E0.00679
G1 X73.18 Y80.516 E0.06503
G1 X73.18 Y79.978 E0.0068
G1 X76.818 Y76.34 E0.06503
G1 X76.818 Y75.803 E0.00679
G1 X73.18 Y79.441 E0.06503
G1 X73.18 Y78.903 E0.0068
G1 X76.818 Y75.265 E0.06503
G1 X76.818 Y74.728 E0.00679
G1 X73.18 Y78.366 E0.06503
G1 X73.18 Y77.829 E0.00679
G1 X76.818 Y74.191 E0.06503
G1 X76.818 Y73.653 E0.0068
G1 X73.18 Y77.291 E0.06503
G1 X73.18 Y76.754 E0.00679
G1 X76.818 Y73.116 E0.06503
G1 X76.818 Y72.578 E0.0068
G1 X73.18 Y76.216 E0.06503
G1 X73.18 Y75.679 E0.00679
G1 X76.818 Y72.041 E0.06503
G1 X76.818 Y71.504 E0.00679
G1 X73.18 Y75.142 E0.06503
G1 X73.18 Y74.604 E0.0068
G1 X76.818 Y70.966 E0.06503
G1 X76.818 Y70.429 E0.00679
G1 X73.18 Y74.067 E0.06503
G1 X73.18 Y73.529 E0.0068
G1 X76.818 Y69.891 E0.06503
G1 X76.818 Y69.354 E0.00679
G1 X73.18 Y72.992 E0.06503
G1 X73.18 Y72.455 E0.00679
G1 X76.818 Y68.817 E0.06503
G1 X76.818 Y68.279 E0.0068
G1 X73.18 Y71.917 E0.06503
G1 X73.18 Y71.38 E0.00679
G1 X76.818 Y67.742 E0.06503
G1 X76.818 Y67.204 E0.0068
G1 X73.18 Y70.842 E0.06503
G1 X73.18 Y70.305 E0.00679
G1 X76.818 Y66.667 E0.06503
G1 X76.818 Y66.13 E0.00679
G1 X73.18 Y69.768 E0.06503
G1 X73.18 Y69.23 E0.0068
G1 X76.818 Y65.592 E0.06503
G1 X76.818 Y65.055 E0.00679
G1 X73.18 Y68.693 E0.06503
G1 X73.18 Y68.155 E0.0068
G1 X76.818 Y64.517 E0.06503
G1 X76.818 Y63.98 E0.00679
G1 X73.18 Y67.618 E0.06503
G1 X73.18 Y67.081 E0.00679
G1 X76.818 Y63.443 E0.06503
G1 X76.818 Y62.905 E0.0068
G1 X73.18 Y66.543 E0.06503
G1 X73.18 Y66.006 E0.00679
G1 X76.818 Y62.368 E0.06503
G1 X76.818 Y61.83 E0.0068
G1 X73.18 Y65.468 E0.06503
G1 X73.18 Y64.931 E0.00679
G1 X76.431 Y61.68 E0.05811
G1 X75.893 Y61.68 E0.0068
G1 X73.18 Y64.394 E0.0485
G1 X73.18 Y63.856 E0.0068
G1 X75.356 Y61.68 E0.03889
G1 X74.818 Y61.68 E0.0068
G1 X73.18 Y63.319 E0.02929
G1 X73.18 Y62.781 E0.0068
G1 X74.281 Y61.68 E0.01968
G1 X73.744 Y61.68 E0.00679
G1 X73.18 Y62.244 E0.01008
G1 X73.18 Y61.707 E0.00679
G1 X73.179 Y61.68 E0.00034
G0 F3240 X72.27 Y61.68
;MESH:NONMESH
G0 X72.622 Y88.878
G0 X77.55 Y89.05
;TIME_ELAPSED:94.436529
;LAYER:2
G1 F4200 E-1.8
;MESH:stringing.stl
G0 F4800 X77.55 Y89.05 Z0.26
;TYPE:WALL-INNER
G1 F4200 E1.8
G1 F1200 X72.45 Y89.05 E0.06446
G1 X72.45 Y60.95 E0.35515
G1 X77.55 Y60.95 E0.06446
G1 X77.55 Y89.05 E0.35515
G0 F4800 X77.93 Y89.43
G1 F1200 X72.07 Y89.43 E0.07406
G1 X72.07 Y60.57 E0.36476
G1 X77.93 Y60.57 E0.07406
G1 X77.93 Y89.43 E0.36476
G0 F4800 X78.3 Y89.8
;TYPE:WALL-OUTER
G1 F1200 X71.7 Y89.8 E0.08342
G1 X71.7 Y60.2 E0.37411
G1 X78.3 Y60.2 E0.08342
G1 X78.3 Y89.8 E0.37411
G0 F4800 X78 Y89.8
G0 X77.882 Y89.382
G0 X77.18 Y88.68
;TYPE:SKIN
G1 F1200 X72.82 Y88.68 E0.05511
G1 X72.82 Y61.32 E0.3458
G1 X77.18 Y61.32 E0.05511
G1 X77.18 Y88.68 E0.3458
G0 F4800 X77.45 Y88.68
G0 X77.378 Y88.878
G0 X72.622 Y88.878
G0 X72.55 Y88.318
G0 X73.18 Y88.318
G1 F1200 X73.271 Y88.318 E0.00115
G1 X73.179 Y88.227 E0.00164
G1 X73.179 Y87.689 E0.0068
G1 X73.808 Y88.318 E0.01124
G1 X74.345 Y88.318 E0.00679
G1 X73.179 Y87.152 E0.02084
G1 X73.179 Y86.614 E0.0068
G1 X74.883 Y88.318 E0.03046
G1 X75.42 Y88.318 E0.00679
G1 X73.179 Y86.077 E0.04006
G1 X73.179 Y85.54 E0.00679
G1 X75.958 Y88.318 E0.04966
G1 X76.495 Y88.318 E0.00679
G1 X73.179 Y85.002 E0.05927
G1 X73.179 Y84.465 E0.00679
G1 X76.819 Y88.104 E0.06505
G1 X76.819 Y87.567 E0.00679
G1 X73.179 Y83.927 E0.06506
G1 X73.179 Y83.39 E0.00679
G1 X76.819 Y87.029 E0.06505
G1 X76.819 Y86.492 E0.00679
G1 X73.179 Y82.853 E0.06505
G1 X73.179 Y82.315 E0.0068
G1 X76.819 Y85.955 E0.06506
G1 X76.819 Y85.417 E0.0068
G1 X73.179 Y81.778 E0.06505
G1 X73.179 Y81.24 E0.0068
G1 X76.819 Y84.88 E0.06506
G1 X76.819 Y84.342 E0.0068
G1 X73.179 Y80.703 E0.06505
G1 X73.179 Y80.166 E0.00679
G1 X76.819 Y83.805 E0.06505
G1 X76.819 Y83.268 E0.00679
G1 X73.179 Y79.628 E0.06506
G1 X73.179 Y79.091 E0.00679
G1 X76.819 Y82.73 E0.06505
G1 X76.819 Y82.193 E0.00679
G1 X73.179 Y78.553 E0.06506
G1 X73.179 Y78.016 E0.00679
G1 X76.819 Y81.655 E0.06505
G1 X76.819 Y81.118 E0.00679
G1 X73.179 Y77.479 E0.06505
G1 X73.179 Y76.941 E0.0068
G1 X76.819 Y80.581 E0.06506
G1 X76.819 Y80.043 E0.0068
G1 X73.179 Y76.404 E0.06505
G1 X73.179 Y75.866 E0.0068
G1 X76.819 Y79.506 E0.06506
G1 X76.819 Y78.968 E0.0068
G1 X73.179 Y75.329 E0.06505
G1 X73.179 Y74.792 E0.00679
G1 X76.819 Y78.431 E0.06505
G1 X76.819 Y77.894 E0.00679
G1 X73.179 Y74.254 E0.06506
G1 X73.179 Y73.717 E0.00679
G1 X76.819 Y77.356 E0.06505
G1 X76.819 Y76.819 E0.00679
G1 X73.179 Y73.179 E0.06506
G1 X73.179 Y72.642 E0.00679
G1 X76.819 Y76.281 E0.06505
G1 X76.819 Y75.744 E0.00679
G1 X73.179 Y72.105 E0.06505
G1 X73.179 Y71.567 E0.0068
G1 X76.819 Y75.207 E0.06506
G1 X76.819 Y74.669 E0.0068
G1 X73.179 Y71.03 E0.06505
G1 X73.179 Y70.492 E0.0068
G1 X76.819 Y74.132 E0.06506
G1 X76.819 Y73.594 E0.0068
G1 X73.179 Y69.955 E0.06505
G1 X73.179 Y69.418 E0.00679
G1 X76.819 Y73.057 E0.06505
G1 X76.819 Y72.52 E0.00679
G1 X73.179 Y68.88 E0.06506
G1 X73.179 Y68.343 E0.00679
G1 X76.819 Y71.982 E0.06505
G1 X76.819 Y71.445 E0.00679
G1 X73.179 Y67.805 E0.06506
G1 X73.179 Y67.268 E0.00679
G1 X76.819 Y70.907 E0.06505
G1 X76.819 Y70.37 E0.00679
G1 X73.179 Y66.731 E0.06505
G1 X73.179 Y66.193 E0.0068
G1 X76.819 Y69.833 E0.06506
G1 X76.819 Y69.295 E0.0068
G1 X73.179 Y65.656 E0.06505
G1 X73.179 Y65.118 E0.0068
G1 X76.819 Y68.758 E0.06506
G1 X76.819 Y68.22 E0.0068
G1 X73.179 Y64.581 E0.06505
G1 X73.179 Y64.044 E0.00679
G1 X76.819 Y67.683 E0.06505
G1 X76.819 Y67.146 E0.00679
G1 X73.179 Y63.506 E0.06506
G1 X73.179 Y62.969 E0.00679
G1 X76.819 Y66.608 E0.06505
G1 X76.819 Y66.071 E0.00679
G1 X73.179 Y62.431 E0.06506
G1 X73.179 Y61.894 E0.00679
G1 X76.819 Y65.533 E0.06505
G1 X76.819 Y64.996 E0.00679
G1 X73.503 Y61.68 E0.05927
G1 X74.041 Y61.68 E0.0068
G1 X76.819 Y64.459 E0.04966
G1 X76.819 Y63.921 E0.0068
G1 X74.578 Y61.68 E0.04006
G1 X75.115 Y61.68 E0.00679
G1 X76.819 Y63.384 E0.03046
G1 X76.819 Y62.846 E0.0068
G1 X75.653 Y61.68 E0.02084
G1 X76.19 Y61.68 E0.00679
G1 X76.819 Y62.309 E0.01124
G1 X76.819 Y61.772 E0.00679
G1 X76.728 Y61.68 E0.00164
G1 X76.818 Y61.68 E0.00114
G0 F4800 X76.818 Y60.77
;MESH:NONMESH
G0 X77.378 Y61.122
G0 X77.45 Y88.67
G0 X77.17 Y88.67
;TIME_ELAPSED:123.109473
;LAYER:3
G1 F4200 E-1.8
;MESH:stringing.stl
G0 F4800 X77.17 Y88.67 Z0.34
;TYPE:FILL
G1 F4200 E1.8
G1 F1080 X72.83 Y88.67 E0.05485
G1 X72.83 Y61.33 E0.34555
G1 X77.17 Y61.33 E0.05485
G1 X77.17 Y88.67 E0.34555
G0 F4800 X75.082 Y88.517
G1 F1080 X72.981 Y86.416 E0.03755
G1 X72.914 Y86.349
G0 F4800 X72.981 Y83.735
G1 F1080 X77.017 Y79.7 E0.07213
G1 X77.084 Y79.633
G0 F4800 X77.018 Y77.018
G1 F1080 X72.981 Y72.981 E0.07216
G1 X72.914 Y72.914
G0 F4800 X72.981 Y70.3
G1 F1080 X77.017 Y66.265 E0.07213
G1 X77.084 Y66.198
G0 F4800 X77.018 Y63.583
G1 F1080 X74.917 Y61.482 E0.03755
G0 F4800 X75.082 Y61.482
G1 F1080 X72.981 Y63.583 E0.03755
G1 X72.914 Y63.65
G0 F4800 X72.981 Y66.263
G1 F1080 X77.018 Y70.3 E0.07216
G1 X77.085 Y70.367
G0 F4800 X77.017 Y72.982
G1 F1080 X72.981 Y77.018 E0.07214
G1 X72.914 Y77.085
G0 F4800 X72.981 Y79.698
G1 F1080 X77.018 Y83.735 E0.07216
G1 X77.085 Y83.802
G0 F4800 X77.017 Y86.417
G1 F1080 X74.917 Y88.517 E0.03754
G1 X74.85 Y88.584
G0 F4800 X77.55 Y89.05
;TYPE:WALL-INNER
G1 F720 X72.45 Y89.05 E0.06446
G1 X72.45 Y60.95 E0.35515
G1 X77.55 Y60.95 E0.06446
G1 X77.55 Y89.05 E0.35515
G0 F4800 X77.93 Y89.43
G1 F720 X72.07 Y89.43 E0.07406
G1 X72.07 Y60.57 E0.36476
G1 X77.93 Y60.57 E0.07406
G1 X77.93 Y89.43 E0.36476
G0 F4800 X78.3 Y89.8
;TYPE:WALL-OUTER
G1 F720 X71.7 Y89.8 E0.08342
G1 X71.7 Y60.2 E0.37411
G1 X78.3 Y60.2 E0.08342
G1 X78.3 Y89.8 E0.37411
G0 F4800 X78 Y89.8
G0 X77.882 Y89.382
G0 X77.73 Y89.23
;MESH:NONMESH
G0 X75.086 Y86.706
;TIME_ELAPSED:147.336334
;LAYER:4
G1 F4200 E-1.8
;MESH:stringing.stl
G0 F4800 X75.086 Y86.706 Z0.42
;TYPE:FILL
G1 F4200 E1.8
G1 F1800 X75.159 Y86.742 E0.00103
G1 X75.227 Y86.797 E0.00111
G1 X75.273 Y86.861 E0.001
G1 X75.304 Y86.941 E0.00108
G1 X75.315 Y87.024 E0.00106
G1 X75.305 Y87.106 E0.00104
G1 X75.274 Y87.183 E0.00105
G1 X75.223 Y87.255 E0.00112
G1 X75.161 Y87.305 E0.00101
G1 X75.081 Y87.343 E0.00112
G1 X75.002 Y87.359 E0.00102
G1 X74.921 Y87.354 E0.00103
G1 X74.834 Y87.325 E0.00116
G1 X74.766 Y87.282 E0.00102
G1 X74.71 Y87.222 E0.00104
G1 X74.667 Y87.144 E0.00113
G1 X74.649 Y87.069 E0.00097
G1 X74.648 Y86.983 E0.00109
G1 X74.669 Y86.9 E0.00108
G1 X74.709 Y86.828 E0.00104
G1 X74.767 Y86.766 E0.00107
G1 X74.839 Y86.721 E0.00107
G1 X74.916 Y86.696 E0.00102
G1 X75.001 Y86.69 E0.00108
G1 X75.086 Y86.706 E0.00109
G1 F4200 E-1.8
G0 F4800 X75.011 Y86.518
G0 X75.011 Y63.531
G0 X75.002 Y63.359
G1 F4200 E1.8
G1 F1800 X74.921 Y63.354 E0.00103
G1 X74.834 Y63.325 E0.00116
G1 X74.766 Y63.282 E0.00102
G1 X74.71 Y63.222 E0.00104
G1 X74.667 Y63.144 E0.00113
G1 X74.649 Y63.069 E0.00097
G1 X74.648 Y62.983 E0.00109
G1 X74.669 Y62.9 E0.00108
G1 X74.709 Y62.828 E0.00104
G1 X74.767 Y62.766 E0.00107
G1 X74.839 Y62.721 E0.00107
G1 X74.916 Y62.696 E0.00102
G1 X75.001 Y62.69 E0.00108
G1 X75.086 Y62.706 E0.00109
G1 X75.159 Y62.742 E0.00103
G1 X75.227 Y62.797 E0.00111
G1 X75.273 Y62.861 E0.001
G1 X75.304 Y62.941 E0.00108
G1 X75.315 Y63.024 E0.00106
G1 X75.305 Y63.106 E0.00104
G1 X75.274 Y63.183 E0.00105
G1 X75.223 Y63.255 E0.00112
G1 X75.161 Y63.305 E0.00101
G1 X75.081 Y63.343 E0.00112
G1 X75.002 Y63.359 E0.00102
G1 F4200 E-1.8
G0 F4800 X75.011 Y63.531
G0 X77.35 Y63.531
G0 X77.35 Y63.606
G0 X77.55 Y89.05
;TYPE:WALL-INNER
G1 F4200 E1.8
G1 F1200 X72.45 Y89.05 E0.06446
G1 X72.45 Y60.95 E0.35515
G1 X77.55 Y60.95 E0.06446
G1 X77.55 Y89.05 E0.35515
G0 F4800 X77.93 Y89.43
G1 F1200 X72.07 Y89.43 E0.07406
G1 X72.07 Y60.57 E0.36476
G1 X77.93 Y60.57 E0.07406
G1 X77.93 Y89.43 E0.36476
G0 F4800 X78.3 Y89.8
;TYPE:WALL-OUTER
G1 F1200 X71.7 Y89.8 E0.08342
G1 X71.7 Y60.2 E0.37411
G1 X78.3 Y60.2 E0.08342
G1 X78.3 Y89.8 E0.37411
G0 F4800 X78 Y89.8
G0 X77.882 Y89.382
G0 X77.18 Y88.68
;TYPE:SKIN
G1 F1200 X72.82 Y88.68 E0.05511
G1 X72.82 Y61.32 E0.3458
G1 X77.18 Y61.32 E0.05511
G1 X77.18 Y88.68 E0.3458
