; G-Code generated by Simplify3D(R) Version 4.0.1
; Aug 25, 2018 at 9:51:09 PM
; Settings Summary
;   processName,Process1-2
;   applyToModels,3DBenchy
;   profileName,Ender-2 (PLA) (modified)
;   profileVersion,2018-08-08 01:23:10
;   baseProfile,Wanhao Duplicator i3 (modified)
;   printMaterial,PLA
;   printQuality,Medium
;   printExtruders,
;   extruderName,Primary Extruder
;   extruderToolheadNumber,0
;   extruderDiameter,0.4
;   extruderAutoWidth,0
;   extruderWidth,0.44
;   extrusionMultiplier,1
;   extruderUseRetract,1
;   extruderRetractionDistance,5.2
;   extruderExtraRestartDistance,-0.1
;   extruderRetractionZLift,1
;   extruderRetractionSpeed,5400
;   extruderUseCoasting,0
;   extruderCoastingDistance,0
;   extruderUseWipe,0
;   extruderWipeDistance,1
;   primaryExtruder,0
;   layerHeight,0.16
;   topSolidLayers,0
;   bottomSolidLayers,0
;   perimeterOutlines,4
;   printPerimetersInsideOut,0
;   startPointOption,2
;   startPointOriginX,12
;   startPointOriginY,12
;   sequentialIslands,0
;   spiralVaseMode,0
;   firstLayerHeightPercentage,70
;   firstLayerWidthPercentage,140
;   firstLayerUnderspeed,0.4
;   useRaft,0
;   raftExtruder,0
;   raftTopLayers,3
;   raftBaseLayers,2
;   raftOffset,3
;   raftSeparationDistance,0.14
;   raftTopInfill,100
;   aboveRaftSpeedMultiplier,0.3
;   useSkirt,1
;   skirtExtruder,0
;   skirtLayers,1
;   skirtOutlines,4
;   skirtOffset,12
;   usePrimePillar,0
;   primePillarExtruder,999
;   primePillarWidth,12
;   primePillarLocation,7
;   primePillarSpeedMultiplier,1
;   useOozeShield,0
;   oozeShieldExtruder,999
;   oozeShieldOffset,2
;   oozeShieldOutlines,1
;   oozeShieldSidewallShape,1
;   oozeShieldSidewallAngle,30
;   oozeShieldSpeedMultiplier,1
;   infillExtruder,0
;   internalInfillPattern,Fast Honeycomb
;   externalInfillPattern,Rectilinear
;   infillPercentage,7
;   outlineOverlapPercentage,10
;   infillExtrusionWidthPercentage,110
;   minInfillLength,5
;   infillLayerInterval,1
;   internalInfillAngles,0
;   overlapInternalInfillAngles,0
;   externalInfillAngles,0,90
;   generateSupport,1
;   supportExtruder,0
;   supportInfillPercentage,30
;   supportExtraInflation,1
;   supportBaseLayers,0
;   denseSupportExtruder,0
;   denseSupportLayers,3
;   denseSupportInfillPercentage,100
;   supportLayerInterval,2
;   supportHorizontalPartOffset,0.3
;   supportUpperSeparationLayers,1
;   supportLowerSeparationLayers,1
;   supportType,1
;   supportGridSpacing,99
;   maxOverhangAngle,50
;   supportAngles,0,45
;   temperatureName,Primary Extruder,Heated Bed
;   temperatureNumber,0,0
;   temperatureSetpointCount,1,1
;   temperatureSetpointLayers,1,1
;   temperatureSetpointTemperatures,205,60
;   temperatureStabilizeAtStartup,1,1
;   temperatureHeatedBed,0,1
;   temperatureRelayBetweenLayers,1,0
;   temperatureRelayBetweenLoops,0,0
;   fanLayers,0,1,2,3,4,5,6,7,8,9,10,11,12,13,14,15,16,17,18,19
;   fanSpeeds,5,10,15,20,25,30,35,40,45,50,55,60,65,70,75,80,85,90,95,100
;   blipFanToFullPower,1
;   adjustSpeedForCooling,0
;   minSpeedLayerTime,15
;   minCoolingSpeedSlowdown,40
;   increaseFanForCooling,0
;   minFanLayerTime,20
;   maxCoolingFanSpeed,100
;   increaseFanForBridging,1
;   bridgingFanSpeed,80
;   use5D,1
;   relativeEdistances,0
;   allowEaxisZeroing,1
;   independentExtruderAxes,0
;   includeM10123,0
;   stickySupport,1
;   applyToolheadOffsets,0
;   gcodeXoffset,0
;   gcodeYoffset,0
;   gcodeZoffset,0
;   overrideMachineDefinition,1
;   machineTypeOverride,0
;   strokeXoverride,160
;   strokeYoverride,150
;   strokeZoverride,205
;   originOffsetXoverride,0
;   originOffsetYoverride,0
;   originOffsetZoverride,0
;   homeXdirOverride,-1
;   homeYdirOverride,-1
;   homeZdirOverride,-1
;   flipXoverride,1
;   flipYoverride,-1
;   flipZoverride,1
;   toolheadOffsets,0,0|0,0|0,0|0,0|0,0|0,0
;   overrideFirmwareConfiguration,1
;   firmwareTypeOverride,RepRap (Marlin/Repetier/Sprinter)
;   GPXconfigOverride,r2
;   baudRateOverride,115200
;   overridePrinterModels,1
;   printerModelsOverride
;   startingGcode,G28 ; home all axes
;   layerChangeGcode,
;   retractionGcode,
;   toolChangeGcode,
;   endingGcode,G1 Y150,M104 S0 ; turn off extruder,M140 S0 ; turn off bed,M106 S0 ; turn off fan,M84 ; disable motors
;   exportFileFormat,gcode
;   celebration,0
;   celebrationSong,Star Wars
;   postProcessing,
;   defaultSpeed,1998
;   outlineUnderspeed,0.33
;   solidInfillUnderspeed,1
;   supportUnderspeed,0.8
;   rapidXYspeed,2700
;   rapidZspeed,960
;   minBridgingArea,50
;   bridgingExtraInflation,0
;   bridgingExtrusionMultiplier,1
;   bridgingSpeedMultiplier,1
;   useFixedBridgingAngle,0
;   fixedBridgingAngle,0
;   applyBridgingToPerimeters,0
;   filamentDiameters,1.75|1.75|1.75|1.75|1.75|1.75
;   filamentPricesPerKg,12|46|46|46|46|46
;   filamentDensities,1.25|1.25|1.25|1.25|1.25|1.25
;   useMinPrintHeight,0
;   minPrintHeight,6
;   useMaxPrintHeight,1
;   maxPrintHeight,5
;   useDiaphragm,0
;   diaphragmLayerInterval,20
;   robustSlicing,0
;   mergeAllIntoSolid,0
;   onlyRetractWhenCrossingOutline,1
;   retractBetweenLayers,0
;   useRetractionMinTravel,0
;   retractionMinTravel,3
;   retractWhileWiping,1
;   onlyWipeOutlines,1
;   avoidCrossingOutline,0
;   maxMovementDetourFactor,300
;   toolChangeRetractionDistance,12
;   toolChangeExtraRestartDistance,-0.5
;   toolChangeRetractionSpeed,600
;   externalThinWallType,0
;   internalThinWallType,0
;   thinWallAllowedOverlapPercentage,20
;   singleExtrusionMinLength,1
;   singleExtrusionMinPrintingWidthPercentage,50
;   singleExtrusionMaxPrintingWidthPercentage,200
;   singleExtrusionEndpointExtension,0.2
;   horizontalSizeCompensation,0
G90
M82
M106 S255
G4 P500
M106 S25
M140 S60
M190 S60
M104 S205 T0
M109 S205 T0
G28 ; home all axes
G92 E0
G1 E-5.2000 F5400
G1 Z1.112 F960
; process Process1-2
; layer 1, Z = 0.112
M105
T0
; tool H0.160 W0.616
; skirt
G1 X44.319 Y56.819 F2700
G1 Z0.112 F960
G1 E-0.1000 F1620
G92 E0
G1 X44.392 Y56.756 E0.0040 F799
G1 X45.665 Y55.785 E0.0695
G1 X45.745 Y55.731 E0.0735
G1 X47.327 Y54.810 E0.1485
G1 X47.399 Y54.773 E0.1518
G1 X48.623 Y54.224 E0.2068
G1 X48.699 Y54.194 E0.2101
G1 X50.186 Y53.706 E0.2743
G1 X50.247 Y53.689 E0.2769
G1 X51.276 Y53.444 E0.3202
G1 X51.338 Y53.432 E0.3228
G1 X52.310 Y53.283 E0.3631
G1 X52.334 Y53.280 E0.3641
G1 X52.741 Y53.231 E0.3809
G1 X52.766 Y53.228 E0.3819
G1 X77.497 Y51.062 E1.3992
G1 X77.513 Y51.061 E1.3998
G1 X77.775 Y51.043 E1.4106
G1 X77.791 Y51.042 E1.4112
G1 X79.189 Y50.977 E1.4686
G1 X79.211 Y50.977 E1.4695
G1 X79.568 Y50.970 E1.4841
G1 X79.589 Y50.970 E1.4850
G1 X81.025 Y50.984 E1.5438
G1 X81.045 Y50.984 E1.5447
G1 X81.389 Y50.997 E1.5588
G1 X81.410 Y50.998 E1.5596
G1 X82.831 Y51.088 E1.6180
G1 X82.852 Y51.090 E1.6189
G1 X83.198 Y51.122 E1.6331
G1 X83.219 Y51.124 E1.6340
G1 X84.628 Y51.291 E1.6921
G1 X84.648 Y51.293 E1.6929
G1 X84.987 Y51.343 E1.7069
G1 X85.007 Y51.346 E1.7078
G1 X86.398 Y51.587 E1.7656
G1 X86.419 Y51.591 E1.7665
G1 X86.757 Y51.659 E1.7806
G1 X86.778 Y51.663 E1.7815
G1 X88.149 Y51.978 E1.8392
G1 X88.169 Y51.983 E1.8400
G1 X88.500 Y52.068 E1.8540
G1 X88.520 Y52.074 E1.8548
G1 X89.893 Y52.467 E1.9134
G1 X89.916 Y52.474 E1.9143
G1 X90.293 Y52.595 E1.9306
G1 X90.316 Y52.603 E1.9316
G1 X92.030 Y53.211 E2.0061
G1 X92.055 Y53.220 E2.0072
G1 X92.452 Y53.377 E2.0247
G1 X92.476 Y53.387 E2.0257
G1 X93.993 Y54.043 E2.0935
G1 X94.016 Y54.053 E2.0945
G1 X94.398 Y54.233 E2.1118
G1 X94.421 Y54.245 E2.1129
G1 X96.045 Y55.078 E2.1877
G1 X96.068 Y55.090 E2.1887
G1 X96.442 Y55.299 E2.2063
G1 X96.464 Y55.311 E2.2073
G1 X97.856 Y56.148 E2.2738
G1 X97.875 Y56.160 E2.2748
G1 X98.190 Y56.362 E2.2901
G1 X98.208 Y56.374 E2.2910
G1 X99.365 Y57.166 E2.3485
G1 X99.382 Y57.178 E2.3493
G1 X99.655 Y57.375 E2.3631
G1 X99.671 Y57.387 E2.3639
G1 X100.781 Y58.235 E2.4212
G1 X100.798 Y58.249 E2.4221
G1 X101.081 Y58.478 E2.4370
G1 X101.098 Y58.492 E2.4379
G1 X102.316 Y59.538 E2.5037
G1 X102.334 Y59.555 E2.5047
G1 X102.633 Y59.829 E2.5213
G1 X102.651 Y59.845 E2.5223
G1 X103.825 Y60.991 E2.5895
G1 X103.843 Y61.009 E2.5905
G1 X104.140 Y61.320 E2.6082
G1 X104.158 Y61.339 E2.6092
G1 X105.364 Y62.685 E2.6833
G1 X105.379 Y62.703 E2.6843
G1 X105.633 Y63.004 E2.7004
G1 X105.648 Y63.023 E2.7014
G1 X106.555 Y64.171 E2.7613
G1 X106.571 Y64.192 E2.7624
G1 X106.827 Y64.540 E2.7802
G1 X106.843 Y64.562 E2.7812
G1 X107.961 Y66.193 E2.8623
G1 X107.973 Y66.211 E2.8632
G1 X108.170 Y66.517 E2.8781
G1 X108.182 Y66.536 E2.8790
G1 X108.891 Y67.709 E2.9352
G1 X108.923 Y67.767 E2.9379
G1 X109.408 Y68.751 E2.9828
G1 X109.434 Y68.811 E2.9855
G1 X110.094 Y70.501 E3.0598
G1 X110.123 Y70.593 E3.0638
G1 X110.515 Y72.142 E3.1293
G1 X110.532 Y72.237 E3.1332
G1 X110.758 Y74.071 E3.2090
G1 X110.763 Y74.172 E3.2131
G1 X110.750 Y75.838 E3.2814
G1 X110.743 Y75.938 E3.2855
G1 X110.442 Y78.095 E3.3747
G1 X110.420 Y78.199 E3.3790
G1 X109.940 Y79.894 E3.4513
G1 X109.904 Y79.994 E3.4556
G1 X109.250 Y81.482 E3.5222
G1 X109.227 Y81.530 E3.5244
G1 X108.813 Y82.319 E3.5609
G1 X108.786 Y82.366 E3.5631
G1 X107.763 Y84.022 E3.6429
G1 X107.749 Y84.044 E3.6439
G1 X107.510 Y84.403 E3.6616
G1 X107.495 Y84.424 E3.6627
G1 X106.434 Y85.907 E3.7374
G1 X106.419 Y85.927 E3.7384
G1 X106.170 Y86.252 E3.7552
G1 X106.155 Y86.272 E3.7562
G1 X105.244 Y87.386 E3.8152
G1 X105.230 Y87.403 E3.8161
G1 X104.990 Y87.680 E3.8311
G1 X104.975 Y87.697 E3.8320
G1 X103.899 Y88.869 E3.8972
G1 X103.883 Y88.885 E3.8982
G1 X103.625 Y89.151 E3.9134
G1 X103.609 Y89.167 E3.9143
G1 X102.562 Y90.182 E3.9740
G1 X102.542 Y90.201 E3.9752
G1 X102.204 Y90.506 E3.9938
G1 X102.184 Y90.524 E3.9949
G1 X100.465 Y91.967 E4.0869
G1 X100.440 Y91.988 E4.0882
G1 X100.008 Y92.321 E4.1106
G1 X99.981 Y92.340 E4.1119
G1 X98.290 Y93.531 E4.1967
G1 X98.267 Y93.546 E4.1978
G1 X97.889 Y93.793 E4.2163
G1 X97.866 Y93.808 E4.2174
G1 X96.454 Y94.659 E4.2850
G1 X96.433 Y94.671 E4.2860
G1 X96.086 Y94.867 E4.3023
G1 X96.065 Y94.878 E4.3033
G1 X94.648 Y95.616 E4.3688
G1 X94.629 Y95.626 E4.3696
G1 X94.317 Y95.778 E4.3838
G1 X94.298 Y95.787 E4.3847
G1 X93.201 Y96.284 E4.4340
G1 X93.184 Y96.292 E4.4348
G1 X92.902 Y96.412 E4.4474
G1 X92.885 Y96.419 E4.4481
G1 X91.604 Y96.927 E4.5046
G1 X91.585 Y96.935 E4.5055
G1 X91.265 Y97.052 E4.5194
G1 X91.246 Y97.059 E4.5202
G1 X89.920 Y97.505 E4.5776
G1 X89.900 Y97.511 E4.5784
G1 X89.574 Y97.612 E4.5924
G1 X89.554 Y97.617 E4.5933
G1 X88.188 Y97.997 E4.6513
G1 X88.167 Y98.003 E4.6523
G1 X87.807 Y98.091 E4.6674
G1 X87.785 Y98.097 E4.6684
G1 X86.191 Y98.441 E4.7352
G1 X86.167 Y98.446 E4.7362
G1 X85.772 Y98.519 E4.7527
G1 X85.748 Y98.523 E4.7537
G1 X84.130 Y98.767 E4.8207
G1 X84.108 Y98.770 E4.8216
G1 X83.741 Y98.815 E4.8368
G1 X83.719 Y98.818 E4.8377
G1 X82.301 Y98.948 E4.8960
G1 X82.282 Y98.950 E4.8968
G1 X81.960 Y98.972 E4.9100
G1 X81.941 Y98.973 E4.9108
G1 X80.674 Y99.025 E4.9628
G1 X80.649 Y99.026 E4.9638
G1 X80.240 Y99.030 E4.9806
G1 X80.215 Y99.030 E4.9816
G1 X78.190 Y98.984 E5.0646
G1 X78.168 Y98.983 E5.0655
G1 X77.795 Y98.964 E5.0808
G1 X77.773 Y98.962 E5.0817
G1 X52.571 Y96.917 E6.1178
G1 X52.521 Y96.912 E6.1198
G1 X51.695 Y96.790 E6.1540
G1 X51.645 Y96.781 E6.1561
G1 X50.477 Y96.530 E6.2051
G1 X50.415 Y96.514 E6.2077
G1 X49.402 Y96.207 E6.2511
G1 X49.341 Y96.186 E6.2537
G1 X47.979 Y95.645 E6.3138
G1 X47.916 Y95.617 E6.3166
G1 X46.893 Y95.101 E6.3635
G1 X46.833 Y95.067 E6.3664
G1 X45.666 Y94.341 E6.4227
G1 X45.610 Y94.303 E6.4255
G1 X44.710 Y93.626 E6.4716
G1 X44.657 Y93.582 E6.4744
G1 X43.463 Y92.507 E6.5403
G1 X43.404 Y92.448 E6.5437
G1 X42.487 Y91.424 E6.6000
G1 X42.435 Y91.359 E6.6034
G1 X41.378 Y89.886 E6.6777
G1 X41.328 Y89.808 E6.6815
G1 X40.589 Y88.463 E6.7444
G1 X40.550 Y88.379 E6.7482
G1 X39.810 Y86.542 E6.8293
G1 X39.782 Y86.459 E6.8329
G1 X39.397 Y85.062 E6.8923
G1 X39.379 Y84.977 E6.8959
G1 X39.132 Y83.405 E6.9611
G1 X39.125 Y83.347 E6.9635
G1 X39.047 Y82.375 E7.0034
G1 X39.045 Y82.317 E7.0058
G1 X38.998 Y67.951 E7.5944
G1 X39.000 Y67.893 E7.5969
G1 X39.071 Y66.921 E7.6368
G1 X39.078 Y66.862 E7.6392
G1 X39.298 Y65.393 E7.7001
G1 X39.313 Y65.320 E7.7031
G1 X39.615 Y64.120 E7.7538
G1 X39.636 Y64.049 E7.7569
G1 X40.189 Y62.501 E7.8242
G1 X40.219 Y62.428 E7.8275
G1 X40.785 Y61.244 E7.8812
G1 X40.822 Y61.175 E7.8845
G1 X41.761 Y59.638 E7.9582
G1 X41.815 Y59.561 E7.9621
G1 X42.789 Y58.334 E8.0263
G1 X42.852 Y58.263 E8.0302
G1 X44.319 Y56.819 E8.1145
G1 X44.618 Y57.143 F2700
G92 E0
G1 X44.670 Y57.097 E0.0028 F799
G1 X45.921 Y56.143 E0.0673
G1 X45.978 Y56.104 E0.0701
G1 X47.538 Y55.196 E0.1441
G1 X47.590 Y55.170 E0.1464
G1 X48.793 Y54.630 E0.2005
G1 X48.847 Y54.609 E0.2029
G1 X50.315 Y54.127 E0.2662
G1 X50.358 Y54.115 E0.2680
G1 X51.369 Y53.874 E0.3106
G1 X51.413 Y53.865 E0.3125
G1 X52.373 Y53.719 E0.3522
G1 X52.390 Y53.716 E0.3530
G1 X52.790 Y53.668 E0.3694
G1 X52.808 Y53.666 E0.3702
G1 X77.533 Y51.500 E1.3872
G1 X77.544 Y51.499 E1.3877
G1 X77.802 Y51.482 E1.3983
G1 X77.813 Y51.482 E1.3987
G1 X79.207 Y51.417 E1.4559
G1 X79.222 Y51.417 E1.4565
G1 X79.573 Y51.410 E1.4709
G1 X79.588 Y51.410 E1.4715
G1 X81.017 Y51.424 E1.5301
G1 X81.032 Y51.424 E1.5307
G1 X81.370 Y51.437 E1.5446
G1 X81.385 Y51.437 E1.5452
G1 X82.801 Y51.527 E1.6033
G1 X82.815 Y51.529 E1.6039
G1 X83.156 Y51.559 E1.6179
G1 X83.170 Y51.561 E1.6185
G1 X84.573 Y51.727 E1.6764
G1 X84.588 Y51.729 E1.6770
G1 X84.921 Y51.778 E1.6908
G1 X84.935 Y51.780 E1.6914
G1 X86.320 Y52.020 E1.7490
G1 X86.335 Y52.023 E1.7496
G1 X86.667 Y52.090 E1.7635
G1 X86.682 Y52.093 E1.7641
G1 X88.048 Y52.406 E1.8215
G1 X88.062 Y52.410 E1.8221
G1 X88.387 Y52.493 E1.8359
G1 X88.401 Y52.497 E1.8365
G1 X89.768 Y52.889 E1.8947
G1 X89.784 Y52.894 E1.8954
G1 X90.156 Y53.013 E1.9114
G1 X90.172 Y53.018 E1.9121
G1 X91.880 Y53.625 E1.9864
G1 X91.897 Y53.631 E1.9871
G1 X92.288 Y53.785 E2.0043
G1 X92.305 Y53.792 E2.0051
G1 X93.815 Y54.445 E2.0725
G1 X93.832 Y54.452 E2.0733
G1 X94.207 Y54.630 E2.0903
G1 X94.223 Y54.638 E2.0910
G1 X95.841 Y55.468 E2.1655
G1 X95.857 Y55.477 E2.1663
G1 X96.225 Y55.681 E2.1835
G1 X96.241 Y55.690 E2.1843
G1 X97.626 Y56.523 E2.2505
G1 X97.640 Y56.532 E2.2512
G1 X97.949 Y56.731 E2.2662
G1 X97.963 Y56.739 E2.2669
G1 X99.114 Y57.527 E2.3241
G1 X99.126 Y57.536 E2.3247
G1 X99.394 Y57.730 E2.3382
G1 X99.406 Y57.738 E2.3388
G1 X100.511 Y58.583 E2.3958
G1 X100.523 Y58.593 E2.3965
G1 X100.801 Y58.818 E2.4111
G1 X100.814 Y58.828 E2.4118
G1 X102.026 Y59.870 E2.4773
G1 X102.040 Y59.882 E2.4780
G1 X102.334 Y60.151 E2.4943
G1 X102.346 Y60.163 E2.4951
G1 X103.515 Y61.303 E2.5619
G1 X103.528 Y61.316 E2.5627
G1 X103.820 Y61.621 E2.5800
G1 X103.833 Y61.635 E2.5808
G1 X105.034 Y62.976 E2.6546
G1 X105.045 Y62.989 E2.6553
G1 X105.294 Y63.285 E2.6711
G1 X105.304 Y63.298 E2.6718
G1 X106.207 Y64.441 E2.7315
G1 X106.219 Y64.456 E2.7322
G1 X106.471 Y64.798 E2.7497
G1 X106.482 Y64.813 E2.7504
G1 X107.596 Y66.439 E2.8312
G1 X107.605 Y66.452 E2.8318
G1 X107.799 Y66.753 E2.8465
G1 X107.807 Y66.766 E2.8471
G1 X108.510 Y67.929 E2.9028
G1 X108.533 Y67.970 E2.9048
G1 X109.009 Y68.937 E2.9489
G1 X109.028 Y68.980 E2.9508
G1 X109.679 Y70.648 E3.0242
G1 X109.700 Y70.714 E3.0270
G1 X110.085 Y72.236 E3.0914
G1 X110.097 Y72.304 E3.0942
G1 X110.319 Y74.111 E3.1688
G1 X110.323 Y74.182 E3.1717
G1 X110.310 Y75.820 E3.2388
G1 X110.305 Y75.892 E3.2418
G1 X110.009 Y78.019 E3.3298
G1 X109.993 Y78.093 E3.3329
G1 X109.521 Y79.760 E3.4039
G1 X109.495 Y79.831 E3.4070
G1 X108.851 Y81.298 E3.4726
G1 X108.834 Y81.332 E3.4742
G1 X108.427 Y82.108 E3.5101
G1 X108.408 Y82.141 E3.5117
G1 X107.390 Y83.787 E3.5910
G1 X107.380 Y83.803 E3.5917
G1 X107.146 Y84.156 E3.6091
G1 X107.135 Y84.171 E3.6099
G1 X106.078 Y85.648 E3.6843
G1 X106.068 Y85.662 E3.6850
G1 X105.823 Y85.982 E3.7015
G1 X105.812 Y85.996 E3.7022
G1 X104.906 Y87.105 E3.7609
G1 X104.895 Y87.117 E3.7616
G1 X104.659 Y87.389 E3.7763
G1 X104.649 Y87.401 E3.7770
G1 X103.577 Y88.569 E3.8419
G1 X103.566 Y88.581 E3.8426
G1 X103.312 Y88.842 E3.8575
G1 X103.300 Y88.853 E3.8582
G1 X102.258 Y89.864 E3.9177
G1 X102.244 Y89.877 E3.9185
G1 X101.912 Y90.176 E3.9368
G1 X101.898 Y90.189 E3.9376
G1 X100.186 Y91.628 E4.0292
G1 X100.168 Y91.642 E4.0301
G1 X99.743 Y91.969 E4.0521
G1 X99.724 Y91.983 E4.0531
