; G-Code generated by Simplify3D(R) Version 4.0.1
; Sep 1, 2018 at 2:06:57 PM
; Settings Summary
;   processName,Process1
;   applyToModels,20140205_Marvin_KeyChain
;   profileName,Ender-2 (PLA)
;   profileVersion,2018-08-08 01:23:10
;   baseProfile,Wanhao Duplicator i3 (modified)
;   printMaterial,PLA
;   printQuality,Medium
;   printExtruders,
;   extruderName,Primary Extruder
;   extruderToolheadNumber,0
;   extruderDiameter,0.4
;   extruderAutoWidth,0
;   extruderWidth,0.44
;   extrusionMultiplier,1
;   extruderUseRetract,1
;   extruderRetractionDistance,5.2
;   extruderExtraRestartDistance,-0.1
;   extruderRetractionZLift,0
;   extruderRetractionSpeed,5400
;   extruderUseCoasting,0
;   extruderCoastingDistance,0
;   extruderUseWipe,0
;   extruderWipeDistance,1
;   primaryExtruder,0
;   layerHeight,0.16
;   topSolidLayers,4
;   bottomSolidLayers,4
;   perimeterOutlines,3
;   printPerimetersInsideOut,1
;   startPointOption,1
;   startPointOriginX,12
;   startPointOriginY,12
;   sequentialIslands,0
;   spiralVaseMode,0
;   firstLayerHeightPercentage,70
;   firstLayerWidthPercentage,140
;   firstLayerUnderspeed,0.4
;   useRaft,0
;   raftExtruder,0
;   raftTopLayers,3
;   raftBaseLayers,2
;   raftOffset,3
;   raftSeparationDistance,0.14
;   raftTopInfill,100
;   aboveRaftSpeedMultiplier,0.3
;   useSkirt,1
;   skirtExtruder,0
;   skirtLayers,1
;   skirtOutlines,5
;   skirtOffset,12
;   usePrimePillar,0
;   primePillarExtruder,999
;   primePillarWidth,12
;   primePillarLocation,7
;   primePillarSpeedMultiplier,1
;   useOozeShield,0
;   oozeShieldExtruder,999
;   oozeShieldOffset,2
;   oozeShieldOutlines,1
;   oozeShieldSidewallShape,1
;   oozeShieldSidewallAngle,30
;   oozeShieldSpeedMultiplier,1
;   infillExtruder,0
;   internalInfillPattern,Fast Honeycomb
;   externalInfillPattern,Rectilinear
;   infillPercentage,20
;   outlineOverlapPercentage,10
;   infillExtrusionWidthPercentage,110
;   minInfillLength,5
;   infillLayerInterval,1
;   internalInfillAngles,0
;   overlapInternalInfillAngles,0
;   externalInfillAngles,0,90
;   generateSupport,0
;   supportExtruder,0
;   supportInfillPercentage,30
;   supportExtraInflation,1
;   supportBaseLayers,0
;   denseSupportExtruder,0
;   denseSupportLayers,3
;   denseSupportInfillPercentage,100
;   supportLayerInterval,2
;   supportHorizontalPartOffset,0.3
;   supportUpperSeparationLayers,1
;   supportLowerSeparationLayers,1
;   supportType,1
;   supportGridSpacing,99
;   maxOverhangAngle,50
;   supportAngles,0,45
;   temperatureName,Primary Extruder,Heated Bed
;   temperatureNumber,0,0
;   temperatureSetpointCount,1,1
;   temperatureSetpointLayers,1,1
;   temperatureSetpointTemperatures,205,60
;   temperatureStabilizeAtStartup,1,1
;   temperatureHeatedBed,0,1
;   temperatureRelayBetweenLayers,1,0
;   temperatureRelayBetweenLoops,0,0
;   fanLayers,0,1,2,3,4,5,6,7,8,9,10,11,12,13,14,15,16,17,18,19
;   fanSpeeds,5,10,15,20,25,30,35,40,45,50,55,60,65,70,75,80,85,90,95,100
;   blipFanToFullPower,1
;   adjustSpeedForCooling,0
;   minSpeedLayerTime,15
;   minCoolingSpeedSlowdown,40
;   increaseFanForCooling,0
;   minFanLayerTime,20
;   maxCoolingFanSpeed,100
;   increaseFanForBridging,1
;   bridgingFanSpeed,80
;   use5D,1
;   relativeEdistances,0
;   allowEaxisZeroing,1
;   independentExtruderAxes,0
;   includeM10123,0
;   stickySupport,1
;   applyToolheadOffsets,0
;   gcodeXoffset,0
;   gcodeYoffset,0
;   gcodeZoffset,0
;   overrideMachineDefinition,1
;   machineTypeOverride,0
;   strokeXoverride,160
;   strokeYoverride,150
;   strokeZoverride,205
;   originOffsetXoverride,0
;   originOffsetYoverride,0
;   originOffsetZoverride,0
;   homeXdirOverride,-1
;   homeYdirOverride,-1
;   homeZdirOverride,-1
;   flipXoverride,1
;   flipYoverride,-1
;   flipZoverride,1
;   toolheadOffsets,0,0|0,0|0,0|0,0|0,0|0,0
;   overrideFirmwareConfiguration,1
;   firmwareTypeOverride,RepRap (Marlin/Repetier/Sprinter)
;   GPXconfigOverride,r2
;   baudRateOverride,115200
;   overridePrinterModels,1
;   printerModelsOverride
;   startingGcode,G28 ; home all axes
;   layerChangeGcode,
;   retractionGcode,
;   toolChangeGcode,
;   endingGcode,G1 Y150,M104 S0 ; turn off extruder,M140 S0 ; turn off bed,M106 S0 ; turn off fan,M84 ; disable motors
;   exportFileFormat,gcode
;   celebration,0
;   celebrationSong,Star Wars
;   postProcessing,
;   defaultSpeed,1998
;   outlineUnderspeed,0.33
;   solidInfillUnderspeed,1
;   supportUnderspeed,0.8
;   rapidXYspeed,2700
;   rapidZspeed,960
;   minBridgingArea,50
;   bridgingExtraInflation,0
;   bridgingExtrusionMultiplier,1
;   bridgingSpeedMultiplier,1
;   useFixedBridgingAngle,0
;   fixedBridgingAngle,0
;   applyBridgingToPerimeters,0
;   filamentDiameters,1.75|1.75|1.75|1.75|1.75|1.75
;   filamentPricesPerKg,12|46|46|46|46|46
;   filamentDensities,1.25|1.25|1.25|1.25|1.25|1.25
;   useMinPrintHeight,0
;   minPrintHeight,6
;   useMaxPrintHeight,0
;   maxPrintHeight,5
;   useDiaphragm,0
;   diaphragmLayerInterval,20
;   robustSlicing,0
;   mergeAllIntoSolid,0
;   onlyRetractWhenCrossingOutline,1
;   retractBetweenLayers,0
;   useRetractionMinTravel,0
;   retractionMinTravel,3
;   retractWhileWiping,0
;   onlyWipeOutlines,0
;   avoidCrossingOutline,0
;   maxMovementDetourFactor,300
;   toolChangeRetractionDistance,12
;   toolChangeExtraRestartDistance,-0.5
;   toolChangeRetractionSpeed,600
;   externalThinWallType,0
;   internalThinWallType,0
;   thinWallAllowedOverlapPercentage,20
;   singleExtrusionMinLength,1
;   singleExtrusionMinPrintingWidthPercentage,50
;   singleExtrusionMaxPrintingWidthPercentage,200
;   singleExtrusionEndpointExtension,0.2
;   horizontalSizeCompensation,0
G90
M82
M106 S255
G4 P500
M106 S25
M140 S60
M190 S60
M104 S205 T0
M109 S205 T0
G28 ; home all axes
G92 E0
G1 E-5.2000 F5400
G1 Z0.112 F960
; process Process1
; layer 1, Z = 0.112
M105
; tool H0.160 W0.440
; inner perimeter
G1 X74.613 Y72.081 F2700
G1 Z19.632 F960
G92 E0
G1 X74.684 Y71.938 E0.0047 F1329
G1 X74.960 Y71.472 E0.0205
G1 X75.276 Y71.016 E0.0367
G1 X75.468 Y70.785 E0.0455
G1 X75.882 Y70.349 E0.0631
G1 X76.307 Y69.983 E0.0796
G1 X76.507 Y69.828 E0.0870
G1 X77.192 Y69.406 E0.1105
G1 X77.841 Y69.102 E0.1315
G1 X78.569 Y68.878 E0.1538
G1 X79.282 Y68.751 E0.1750
G1 X80.000 Y68.708 E0.1960
G1 X80.718 Y68.751 E0.2171
G1 X81.434 Y68.879 E0.2384
G1 X82.127 Y69.088 E0.2596
G1 X82.809 Y69.407 E0.2816
G1 X83.493 Y69.828 E0.3051
G1 X83.693 Y69.983 E0.3125
G1 X84.118 Y70.349 E0.3289
G1 X84.532 Y70.785 E0.3465
G1 X84.724 Y71.016 E0.3553
G1 X85.040 Y71.472 E0.3716
G1 X85.316 Y71.938 E0.3874
G1 X85.387 Y72.081 E0.3921
G1 X85.637 Y72.698 E0.4116
G1 X85.812 Y73.253 E0.4286
G1 X85.913 Y73.775 E0.4442
G1 X85.967 Y74.296 E0.4595
G1 X85.978 Y74.813 E0.4746
G1 X85.946 Y75.333 E0.4899
G1 X85.871 Y75.851 E0.5052
G1 X85.733 Y76.385 E0.5213
G1 X85.525 Y76.964 E0.5393
G1 X85.241 Y77.568 E0.5589
G1 X84.727 Y78.349 E0.5863
G1 X84.117 Y79.026 E0.6129
G1 X83.479 Y79.546 E0.6370
G1 X82.814 Y79.961 E0.6600
G1 X82.129 Y80.268 E0.6819
G1 X81.423 Y80.490 E0.7036
G1 X80.713 Y80.623 E0.7247
G1 X80.000 Y80.667 E0.7456
G1 X79.287 Y80.623 E0.7665
G1 X78.577 Y80.490 E0.7877
G1 X77.871 Y80.268 E0.8094
G1 X77.186 Y79.961 E0.8313
G1 X76.521 Y79.546 E0.8543
G1 X75.883 Y79.026 E0.8784
G1 X75.273 Y78.349 E0.9050
G1 X74.743 Y77.543 E0.9333
G1 X74.703 Y77.470 E0.9357
G1 X74.478 Y76.971 E0.9517
G1 X74.267 Y76.385 E0.9700
G1 X74.129 Y75.851 E0.9861
G1 X74.054 Y75.333 E1.0014
G1 X74.022 Y74.813 E1.0167
G1 X74.033 Y74.296 E1.0318
G1 X74.087 Y73.775 E1.0471
G1 X74.188 Y73.253 E1.0627
G1 X74.363 Y72.698 E1.0797
G1 X74.613 Y72.081 E1.0992
G1 X74.212 Y71.900 F2700
G92 E0
G1 X74.297 Y71.728 E0.0056 F1329
G1 X74.589 Y71.234 E0.0224
G1 X74.925 Y70.750 E0.0397
G1 X75.139 Y70.492 E0.0495
G1 X75.578 Y70.030 E0.0681
G1 X76.028 Y69.642 E0.0855
G1 X76.256 Y69.466 E0.0939
G1 X76.982 Y69.019 E0.1189
G1 X77.682 Y68.690 E0.1415
G1 X78.465 Y68.450 E0.1655
G1 X79.230 Y68.313 E0.1882
G1 X80.000 Y68.267 E0.2108
G1 X80.770 Y68.313 E0.2334
G1 X81.536 Y68.450 E0.2562
G1 X82.284 Y68.676 E0.2790
G1 X83.018 Y69.019 E0.3028
G1 X83.744 Y69.466 E0.3277
G1 X83.972 Y69.642 E0.3361
G1 X84.422 Y70.030 E0.3535
G1 X84.861 Y70.492 E0.3722
G1 X85.075 Y70.750 E0.3820
G1 X85.411 Y71.234 E0.3992
G1 X85.703 Y71.728 E0.4160
G1 X85.788 Y71.900 E0.4217
G1 X86.052 Y72.549 E0.4422
G1 X86.239 Y73.145 E0.4604
G1 X86.349 Y73.710 E0.4773
G1 X86.407 Y74.269 E0.4937
G1 X86.418 Y74.822 E0.5099
G1 X86.384 Y75.378 E0.5262
G1 X86.303 Y75.937 E0.5428
G1 X86.154 Y76.515 E0.5602
G1 X85.932 Y77.132 E0.5794
G1 X85.626 Y77.783 E0.6005
G1 X85.077 Y78.619 E0.6298
G1 X84.422 Y79.346 E0.6584
G1 X83.735 Y79.905 E0.6843
G1 X83.021 Y80.350 E0.7089
G1 X82.286 Y80.680 E0.7325
G1 X81.530 Y80.918 E0.7557
G1 X80.767 Y81.060 E0.7784
G1 X80.000 Y81.108 E0.8009
G1 X79.233 Y81.060 E0.8234
G1 X78.470 Y80.918 E0.8461
G1 X77.714 Y80.680 E0.8693
G1 X76.979 Y80.350 E0.8929
G1 X76.265 Y79.905 E0.9175
G1 X75.578 Y79.346 E0.9435
G1 X74.923 Y78.619 E0.9721
G1 X74.364 Y77.768 E1.0019
G1 X74.309 Y77.665 E1.0053
G1 X74.070 Y77.137 E1.0223
G1 X73.846 Y76.515 E1.0416
G1 X73.697 Y75.937 E1.0591
G1 X73.616 Y75.378 E1.0756
G1 X73.582 Y74.822 E1.0919
G1 X73.593 Y74.269 E1.1081
G1 X73.651 Y73.710 E1.1246
G1 X73.761 Y73.145 E1.1414
G1 X73.948 Y72.549 E1.1597
G1 X74.212 Y71.900 E1.1802
; outer perimeter
G1 X73.811 Y71.719 F2700
G92 E0
G1 X73.910 Y71.518 E0.0066 F659
G1 X74.218 Y70.996 E0.0243
G1 X74.574 Y70.483 E0.0426
G1 X74.810 Y70.200 E0.0534
G1 X75.274 Y69.711 E0.0731
G1 X75.750 Y69.301 E0.0915
G1 X76.006 Y69.103 E0.1009
G1 X76.773 Y68.631 E0.1273
G1 X77.523 Y68.279 E0.1516
G1 X78.361 Y68.022 E0.1772
G1 X79.178 Y67.875 E0.2015
G1 X80.000 Y67.827 E0.2256
G1 X80.822 Y67.875 E0.2497
G1 X81.639 Y68.022 E0.2740
G1 X82.442 Y68.263 E0.2985
G1 X83.227 Y68.631 E0.3239
G1 X83.994 Y69.103 E0.3503
G1 X84.250 Y69.301 E0.3598
G1 X84.726 Y69.711 E0.3781
G1 X85.190 Y70.200 E0.3979
G1 X85.426 Y70.483 E0.4086
G1 X85.782 Y70.996 E0.4269
G1 X86.090 Y71.518 E0.4447
G1 X86.189 Y71.719 E0.4512
G1 X86.466 Y72.400 E0.4727
G1 X86.666 Y73.037 E0.4923
G1 X86.785 Y73.646 E0.5104
G1 X86.846 Y74.241 E0.5280
G1 X86.858 Y74.831 E0.5452
G1 X86.822 Y75.423 E0.5626
G1 X86.735 Y76.024 E0.5804
G1 X86.575 Y76.645 E0.5991
G1 X86.339 Y77.301 E0.6195
G1 X86.011 Y77.999 E0.6421
G1 X85.426 Y78.889 E0.6733
G1 X84.726 Y79.666 E0.7039
G1 X83.992 Y80.264 E0.7316
G1 X83.228 Y80.740 E0.7579
G1 X82.442 Y81.092 E0.7831
G1 X81.637 Y81.345 E0.8079
G1 X80.821 Y81.498 E0.8321
G1 X80.000 Y81.549 E0.8562
G1 X79.179 Y81.498 E0.8803
G1 X78.363 Y81.345 E0.9046
G1 X77.558 Y81.092 E0.9293
G1 X76.772 Y80.740 E0.9545
G1 X76.008 Y80.264 E0.9808
G1 X75.274 Y79.666 E1.0086
G1 X74.574 Y78.889 E1.0392
G1 X73.986 Y77.994 E1.0705
G1 X73.914 Y77.860 E1.0750
G1 X73.662 Y77.302 E1.0929
G1 X73.425 Y76.645 E1.1133
G1 X73.265 Y76.024 E1.1321
G1 X73.178 Y75.423 E1.1499
G1 X73.142 Y74.831 E1.1672
G1 X73.154 Y74.241 E1.1845
G1 X73.215 Y73.646 E1.2020
G1 X73.334 Y73.037 E1.2202
G1 X73.534 Y72.400 E1.2397
G1 X73.811 Y71.719 E1.2612
; tool H0.160 W0.484
; infill
G1 X77.060 Y69.979 F2700
G92 E0
G1 X77.310 Y69.979 E0.0081 F1998
G1 X77.442 Y69.751 E0.0165
G1 X77.991 Y69.493 E0.0361
G1 X78.667 Y69.285 E0.0588
G1 X79.331 Y69.167 E0.0806
G1 X80.000 Y69.127 E0.1021
G1 X80.669 Y69.167 E0.1237
G1 X81.336 Y69.286 E0.1455
G1 X81.977 Y69.479 E0.1671
G1 X82.558 Y69.751 E0.1877
G1 X82.690 Y69.979 E0.1962
G1 X82.940 Y69.979 E0.2043
G1 X83.255 Y70.173 E0.2162
G1 X83.429 Y70.307 E0.2232
G1 X83.469 Y70.342 E0.2250
G1 X82.690 Y70.342 E0.2501
G1 X81.502 Y72.399 E0.3265
G1 X78.498 Y72.399 E0.4232
G1 X77.310 Y70.342 E0.4997
G1 X76.531 Y70.342 E0.5248
G1 X76.171 Y70.652 E0.5401
G1 X75.781 Y71.063 E0.5584
G1 X75.609 Y71.269 E0.5670
G1 X75.312 Y71.697 E0.5838
G1 X75.052 Y72.138 E0.6003
G1 X74.995 Y72.253 E0.6044
G1 X74.756 Y72.839 E0.6248
G1 X74.594 Y73.356 E0.6422
G1 X74.500 Y73.837 E0.6580
G1 X74.450 Y74.321 E0.6737
G1 X74.441 Y74.804 E0.6892
G1 X74.441 Y74.819 E0.6897
G1 X77.310 Y74.819 E0.7820
G1 X78.498 Y72.762 E0.8585
G1 X81.502 Y72.762 E0.9552
G1 X82.690 Y74.819 E1.0317
G1 X85.559 Y74.819 E1.1241
G1 X85.536 Y75.182 E1.1358
G1 X82.690 Y75.182 E1.2274
G1 X81.502 Y77.238 E1.3039
G1 X78.498 Y77.238 E1.4006
G1 X77.310 Y75.182 E1.4771
G1 X74.464 Y75.182 E1.5687
G1 X74.471 Y75.290 E1.5722
G1 X74.539 Y75.768 E1.5878
G1 X74.667 Y76.262 E1.6042
G1 X74.866 Y76.814 E1.6231
G1 X75.078 Y77.285 E1.6397
G1 X75.102 Y77.329 E1.6413
G1 X75.604 Y78.093 E1.6708
G1 X76.171 Y78.723 E1.6981
G1 X76.765 Y79.206 E1.7227
G1 X77.358 Y79.576 E1.7452
G1 X78.498 Y77.601 E1.8186
G1 X81.502 Y77.601 E1.9153
G1 X82.642 Y79.576 E1.9887
; layer 124, Z = 19.792
M105
; tool H0.160 W0.440
; inner perimeter
G1 X84.221 Y70.680 F2700
G1 Z19.792 F960
G92 E0
G1 X84.724 Y71.284 E0.0230 F1329
G1 X84.794 Y71.385 E0.0266
G1 X85.204 Y72.079 E0.0502
G1 X85.278 Y72.231 E0.0551
G1 X85.446 Y72.644 E0.0682
G1 X85.629 Y73.227 E0.0861
G1 X85.748 Y73.773 E0.1024
G1 X85.813 Y74.306 E0.1181
G1 X85.824 Y74.812 E0.1330
G1 X85.787 Y75.330 E0.1482
G1 X85.696 Y75.863 E0.1640
G1 X85.546 Y76.427 E0.1811
G1 X85.338 Y77.003 E0.1990
G1 X85.010 Y77.631 E0.2197
G1 X84.701 Y78.113 E0.2365
G1 X84.569 Y78.284 E0.2428
G1 X84.093 Y78.817 E0.2637
G1 X83.846 Y79.044 E0.2735
G1 X83.471 Y79.349 E0.2877
G1 X82.787 Y79.794 E0.3116
G1 X82.595 Y79.888 E0.3178
G1 X82.129 Y80.097 E0.3328
G1 X81.423 Y80.319 E0.3544
G1 X80.712 Y80.452 E0.3756
G1 X80.000 Y80.496 E0.3965
G1 X79.288 Y80.452 E0.4174
G1 X78.577 Y80.319 E0.4385
G1 X77.878 Y80.099 E0.4600
G1 X77.201 Y79.786 E0.4818
G1 X76.529 Y79.349 E0.5053
G1 X76.154 Y79.044 E0.5194
G1 X75.906 Y78.817 E0.5293
G1 X75.431 Y78.284 E0.5502
G1 X75.299 Y78.113 E0.5565
G1 X74.986 Y77.626 E0.5735
G1 X74.703 Y77.101 E0.5909
G1 X74.673 Y77.033 E0.5931
G1 X74.454 Y76.427 E0.6119
G1 X74.304 Y75.863 E0.6290
G1 X74.213 Y75.330 E0.6448
G1 X74.176 Y74.812 E0.6600
G1 X74.188 Y74.297 E0.6751
G1 X74.252 Y73.774 E0.6905
G1 X74.371 Y73.227 E0.7069
G1 X74.554 Y72.644 E0.7248
G1 X74.722 Y72.231 E0.7379
G1 X74.795 Y72.079 E0.7428
G1 X75.206 Y71.385 E0.7664
G1 X75.276 Y71.284 E0.7700
G1 X75.779 Y70.680 E0.7930
G1 X75.882 Y70.571 E0.7974
G1 X76.553 Y69.993 E0.8233
G1 X76.649 Y69.927 E0.8267
G1 X77.192 Y69.592 E0.8454
G1 X77.887 Y69.266 E0.8679
G1 X78.589 Y69.034 E0.8895
G1 X78.741 Y69.004 E0.8940
G1 X79.282 Y68.907 E0.9101
G1 X80.000 Y68.865 E0.9312
G1 X80.716 Y68.907 E0.9522
G1 X81.417 Y69.036 E0.9730
G1 X82.113 Y69.266 E0.9945
G1 X82.808 Y69.592 E1.0170
G1 X83.351 Y69.927 E1.0356
G1 X83.447 Y69.993 E1.0390
G1 X84.118 Y70.571 E1.0650
G1 X84.221 Y70.680 E1.0694
G1 X84.550 Y70.387 F2700
G92 E0
G1 X85.075 Y71.018 E0.0240 F1329
G1 X85.165 Y71.148 E0.0286
G1 X85.593 Y71.871 E0.0532
G1 X85.680 Y72.052 E0.0591
G1 X85.860 Y72.495 E0.0731
G1 X86.054 Y73.114 E0.0921
G1 X86.183 Y73.699 E0.1096
G1 X86.252 Y74.275 E0.1266
G1 X86.265 Y74.823 E0.1426
G1 X86.224 Y75.383 E0.1591
G1 X86.126 Y75.957 E0.1761
G1 X85.966 Y76.558 E0.1943
G1 X85.742 Y77.181 E0.2137
G1 X85.391 Y77.853 E0.2359
G1 X85.061 Y78.367 E0.2538
G1 X84.908 Y78.565 E0.2611
G1 X84.407 Y79.126 E0.2831
G1 X84.134 Y79.377 E0.2940
G1 X83.731 Y79.706 E0.3092
G1 X83.005 Y80.177 E0.3345
G1 X82.783 Y80.286 E0.3418
G1 X82.286 Y80.509 E0.3577
G1 X81.530 Y80.747 E0.3809
G1 X80.767 Y80.890 E0.4036
G1 X80.000 Y80.937 E0.4261
G1 X79.233 Y80.890 E0.4486
G1 X78.470 Y80.747 E0.4713
G1 X77.719 Y80.510 E0.4944
G1 X76.988 Y80.172 E0.5180
G1 X76.269 Y79.706 E0.5430
G1 X75.866 Y79.377 E0.5583
G1 X75.593 Y79.126 E0.5691
G1 X75.092 Y78.565 E0.5911
G1 X74.939 Y78.367 E0.5984
G1 X74.606 Y77.849 E0.6165
G1 X74.309 Y77.296 E0.6349
G1 X74.265 Y77.198 E0.6380
G1 X74.034 Y76.558 E0.6579
G1 X73.874 Y75.957 E0.6761
G1 X73.776 Y75.383 E0.6931
G1 X73.735 Y74.823 E0.7096
G1 X73.748 Y74.265 E0.7259
G1 X73.817 Y73.700 E0.7426
G1 X73.946 Y73.114 E0.7601
G1 X74.140 Y72.495 E0.7791
G1 X74.320 Y72.052 E0.7931
G1 X74.407 Y71.871 E0.7990
G1 X74.835 Y71.148 E0.8236
G1 X74.925 Y71.018 E0.8282
G1 X75.450 Y70.387 E0.8522
G1 X75.578 Y70.252 E0.8577
G1 X76.284 Y69.644 E0.8850
G1 X76.409 Y69.558 E0.8894
G1 X76.982 Y69.205 E0.9091
G1 X77.724 Y68.856 E0.9331
