; G-Code generated by Simplify3D(R) Version 4.0.1
G90
M82
M106 S255
G4 P500
M106 S25
M140 S60
M190 S60
M104 S205 T0
M109 S205 T0
G28 ; home all axes
G92 E0
G1 E-5.2000 F5400
G1 Z0.112 F960
; process Process1
; layer 1, Z = 0.112
M105
T0
G1 X76.776 Y78.171 F2700
G1 E-0.1000 F5400
G92 E0
G1 X76.865 Y78.039 E0.0046 F1329
G1 X76.912 Y77.994 E0.0066
G1 X76.975 Y77.957 E0.0087
G1 X76.988 Y77.954 E0.0091
G1 X77.018 Y77.956 E0.0100
G1 X77.073 Y77.978 E0.0117
G1 X77.080 Y77.983 E0.0119
G1 X77.181 Y78.081 E0.0160
G1 X77.252 Y78.185 E0.0197
G1 X77.280 Y78.242 E0.0216
G1 X77.346 Y78.456 E0.0281
G1 X77.363 Y78.565 E0.0314
G1 X77.370 Y78.784 E0.0378
G1 X77.314 Y79.397 E0.0558
G1 X77.282 Y79.549 E0.0603
G1 X77.244 Y79.666 E0.0639
G1 X77.212 Y79.728 E0.0660
G1 X77.193 Y79.751 E0.0669
G1 X77.185 Y79.757 E0.0672
G1 X77.181 Y79.759 E0.0673
G1 X77.165 Y79.761 E0.0678
G1 X77.125 Y79.756 E0.0689
G1 X77.056 Y79.733 E0.0711
G1 X76.984 Y79.693 E0.0735
G1 X76.910 Y79.630 E0.0763
G1 X76.827 Y79.530 E0.0801
G1 X76.752 Y79.410 E0.0843
G1 X76.705 Y79.303 E0.0877
G1 X76.682 Y79.227 E0.0900
G1 X76.641 Y78.798 E0.1026
G1 X76.646 Y78.622 E0.1078
G1 X76.674 Y78.442 E0.1131
G1 X76.694 Y78.372 E0.1153
G1 X76.776 Y78.171 E0.1216
; outer perimeter
G1 X76.386 Y77.962 F2700
G92 E0
G1 X76.527 Y77.754 E0.0073 F659
G1 X76.645 Y77.641 E0.0121
G1 X76.806 Y77.546 E0.0176
G1 X76.948 Y77.510 E0.0219
G1 X77.118 Y77.522 E0.0269
G1 X77.278 Y77.586 E0.0319
G1 X77.357 Y77.639 E0.0347
G1 X77.519 Y77.796 E0.0413
G1 X77.633 Y77.963 E0.0472
G1 X77.690 Y78.079 E0.0510
G1 X77.776 Y78.357 E0.0595
G1 X77.802 Y78.525 E0.0645
G1 X77.810 Y78.797 E0.0725
G1 X77.750 Y79.462 E0.0920
G1 X77.708 Y79.662 E0.0980
G1 X77.652 Y79.835 E0.1033
G1 X77.581 Y79.972 E0.1078
G1 X77.496 Y80.074 E0.1117
G1 X77.399 Y80.146 E0.1152
G1 X77.290 Y80.189 E0.1187
G1 X77.167 Y80.204 E0.1223
G1 X77.029 Y80.188 E0.1264
G1 X76.879 Y80.138 E0.1310
G1 X76.731 Y80.056 E0.1359
G1 X76.596 Y79.939 E0.1412
G1 X76.470 Y79.790 E0.1469
G1 X76.361 Y79.615 E0.1529
G1 X76.291 Y79.455 E0.1580
G1 X76.248 Y79.313 E0.1624
G1 X76.200 Y78.813 E0.1771
G1 X76.207 Y78.581 E0.1839
G1 X76.244 Y78.347 E0.1908
G1 X76.278 Y78.228 E0.1944
G1 X76.386 Y77.962 E0.2028
; layer 141, Z = 22.512
M105
; inner perimeter
G1 X77.363 Y79.421 F2700
G1 Z22.512 F960
G92 E0
G1 X77.355 Y79.602 E0.0053 F1329
G1 X77.338 Y79.750 E0.0097
G1 X77.308 Y79.856 E0.0129
G1 X77.283 Y79.912 E0.0147
G1 X77.279 Y79.918 E0.0149
G1 X77.252 Y79.921 E0.0157
G1 X77.196 Y79.915 E0.0173
G1 X77.127 Y79.892 E0.0195
G1 X77.038 Y79.843 E0.0224
G1 X76.934 Y79.762 E0.0263
G1 X76.906 Y79.733 E0.0275
G1 X76.782 Y79.552 E0.0339
G1 X76.722 Y79.420 E0.0381
G1 X76.682 Y79.289 E0.0421
G1 X76.667 Y79.195 E0.0449
G1 X76.664 Y79.111 E0.0474
G1 X76.684 Y78.812 E0.0562
G1 X76.712 Y78.632 E0.0615
G1 X76.732 Y78.565 E0.0636
G1 X76.813 Y78.367 E0.0698
G1 X76.889 Y78.256 E0.0737
G1 X76.945 Y78.203 E0.0760
G1 X76.955 Y78.196 E0.0764
G1 X76.983 Y78.182 E0.0773
G1 X76.989 Y78.180 E0.0775
G1 X76.999 Y78.179 E0.0778
G1 X77.049 Y78.199 E0.0793
G1 X77.118 Y78.264 E0.0821
G1 X77.178 Y78.348 E0.0851
G1 X77.210 Y78.406 E0.0871
G1 X77.279 Y78.596 E0.0930
G1 X77.305 Y78.722 E0.0967
G1 X77.350 Y79.194 E0.1106
G1 X77.363 Y79.421 E0.1173
; outer perimeter
G1 X77.803 Y79.418 F2700
G92 E0
G1 X77.794 Y79.637 E0.0064 F659
G1 X77.771 Y79.835 E0.0123
G1 X77.723 Y80.005 E0.0174
G1 X77.663 Y80.140 E0.0217
G1 X77.588 Y80.237 E0.0253
G1 X77.496 Y80.306 E0.0287
G1 X77.385 Y80.348 E0.0322
G1 X77.254 Y80.364 E0.0360
G1 X77.102 Y80.348 E0.0405
G1 X76.950 Y80.297 E0.0452
G1 X76.795 Y80.212 E0.0504
G1 X76.639 Y80.090 E0.0562
G1 X76.564 Y80.012 E0.0593
G1 X76.398 Y79.769 E0.0679
G1 X76.309 Y79.576 E0.0742
G1 X76.252 Y79.388 E0.0799
G1 X76.228 Y79.238 E0.0844
G1 X76.223 Y79.104 E0.0883
G1 X76.246 Y78.762 E0.0983
G1 X76.282 Y78.536 E0.1050
G1 X76.316 Y78.419 E0.1086
G1 X76.424 Y78.157 E0.1169
G1 X76.552 Y77.970 E0.1235
G1 X76.671 Y77.856 E0.1283
G1 X76.731 Y77.817 E0.1304
G1 X76.816 Y77.772 E0.1333
G1 X76.908 Y77.745 E0.1360
G1 X77.018 Y77.735 E0.1393
G1 X77.111 Y77.749 E0.1420
G1 X77.267 Y77.813 E0.1470
G1 X77.314 Y77.845 E0.1486
G1 X77.450 Y77.972 E0.1541
G1 X77.552 Y78.114 E0.1592
G1 X77.613 Y78.227 E0.1629
G1 X77.703 Y78.476 E0.1707
G1 X77.740 Y78.656 E0.1761
G1 X77.789 Y79.160 E0.1909
G1 X77.803 Y79.418 E0.1985
G92 E0
G1 E-5.2000 F5400
; inner perimeter
G1 X80.334 Y74.444 F2700
G1 E-0.1000 F5400
G92 E0
G1 X80.393 Y74.794 E0.0104 F1329
G1 X80.338 Y74.902 E0.0140
G1 X80.000 Y75.125 E0.0258
G1 X79.662 Y74.902 E0.0377
G1 X79.607 Y74.794 E0.0412
G1 X79.666 Y74.444 E0.0516
G1 X80.000 Y74.312 E0.0621
G1 X80.334 Y74.444 E0.0726
; outer perimeter
G1 X80.716 Y74.121 F2700
G92 E0
G1 X80.729 Y74.137 E0.0006 F659
G1 X80.851 Y74.863 E0.0221
G1 X80.678 Y75.205 E0.0334
G1 X80.148 Y75.554 E0.0519
G1 X80.000 Y75.596 E0.0564
G1 X79.852 Y75.554 E0.0610
G1 X79.322 Y75.205 E0.0795
G1 X79.149 Y74.863 E0.0908
G1 X79.271 Y74.137 E0.1123
G1 X79.284 Y74.121 E0.1129
G1 X80.000 Y73.838 E0.1354
G1 X80.716 Y74.121 E0.1579
G92 E0
G1 E-5.2000 F5400
; inner perimeter
G1 X83.071 Y78.220 F2700
G1 E-0.1000 F5400
G92 E0
G1 X83.124 Y78.272 E0.0022 F1329
G1 X83.188 Y78.365 E0.0055
G1 X83.231 Y78.456 E0.0084
G1 X83.289 Y78.639 E0.0140
G1 X83.313 Y78.794 E0.0186
G1 X83.319 Y78.951 E0.0232
G1 X83.327 Y79.013 E0.0251
G1 X83.327 Y79.212 E0.0309
G1 X83.315 Y79.297 E0.0334
G1 X83.278 Y79.421 E0.0372
G1 X83.218 Y79.552 E0.0414
G1 X83.094 Y79.733 E0.0478
G1 X83.066 Y79.762 E0.0490
G1 X82.962 Y79.843 E0.0529
G1 X82.873 Y79.892 E0.0558
G1 X82.804 Y79.915 E0.0580
G1 X82.748 Y79.921 E0.0596
G1 X82.721 Y79.918 E0.0604
G1 X82.717 Y79.912 E0.0606
G1 X82.692 Y79.856 E0.0624
G1 X82.662 Y79.750 E0.0656
G1 X82.645 Y79.602 E0.0700
G1 X82.638 Y79.429 E0.0751
G1 X82.690 Y78.763 E0.0946
G1 X82.731 Y78.564 E0.1006
G1 X82.788 Y78.411 E0.1053
G1 X82.821 Y78.349 E0.1074
G1 X82.874 Y78.275 E0.1101
G1 X82.947 Y78.206 E0.1130
G1 X82.992 Y78.183 E0.1145
G1 X82.995 Y78.182 E0.1146
G1 X83.005 Y78.184 E0.1149
G1 X83.071 Y78.220 E0.1171
; outer perimeter
G1 X83.335 Y77.862 F2700
G92 E0
G1 X83.463 Y77.988 E0.0052 F659
G1 X83.570 Y78.144 E0.0108
G1 X83.642 Y78.295 E0.0157
G1 X83.718 Y78.538 E0.0231
G1 X83.752 Y78.751 E0.0295
G1 X83.758 Y78.913 E0.0342
G1 X83.767 Y78.983 E0.0363
G1 X83.767 Y79.244 E0.0439
G1 X83.746 Y79.391 E0.0482
G1 X83.690 Y79.577 E0.0539
G1 X83.602 Y79.769 E0.0601
G1 X83.436 Y80.012 E0.0687
G1 X83.361 Y80.090 E0.0719
G1 X83.205 Y80.212 E0.0777
G1 X83.050 Y80.297 E0.0829
G1 X82.898 Y80.348 E0.0876
G1 X82.746 Y80.364 E0.0920
G1 X82.615 Y80.348 E0.0959
G1 X82.504 Y80.306 E0.0994
G1 X82.412 Y80.237 E0.1027
G1 X82.337 Y80.140 E0.1063
G1 X82.277 Y80.005 E0.1106
G1 X82.229 Y79.835 E0.1158
G1 X82.206 Y79.637 E0.1216
G1 X82.197 Y79.421 E0.1280
G1 X82.253 Y78.701 E0.1491
G1 X82.306 Y78.443 E0.1568
G1 X82.385 Y78.231 E0.1635
G1 X82.446 Y78.117 E0.1672
G1 X82.541 Y77.983 E0.1720
G1 X82.691 Y77.843 E0.1781
G1 X82.852 Y77.760 E0.1833
G1 X82.994 Y77.736 E0.1876
G1 X83.150 Y77.762 E0.1922
G1 X83.335 Y77.862 E0.1983
; layer 142, Z = 22.672
M105
; inner perimeter
G1 X82.799 Y80.045 F2700
G1 Z22.672 F960
G92 E0
G1 X82.704 Y80.074 E0.0029 F1329
G1 X82.640 Y80.081 E0.0048
G1 X82.608 Y80.078 E0.0057
G1 X82.596 Y80.047 E0.0067
G1 X82.579 Y79.970 E0.0090
G1 X82.580 Y79.629 E0.0190
G1 X82.645 Y79.221 E0.0311
G1 X82.755 Y78.797 E0.0439
G1 X82.815 Y78.628 E0.0491
G1 X82.857 Y78.548 E0.0518
G1 X82.908 Y78.480 E0.0543
G1 X82.968 Y78.426 E0.0566
G1 X82.996 Y78.412 E0.0575
G1 X83.010 Y78.414 E0.0580
G1 X83.034 Y78.426 E0.0587
G1 X83.085 Y78.472 E0.0607
G1 X83.155 Y78.571 E0.0643
G1 X83.207 Y78.682 E0.0679
G1 X83.255 Y78.840 E0.0727
G1 X83.311 Y79.096 E0.0804
G1 X83.315 Y79.283 E0.0859
G1 X83.291 Y79.416 E0.0898
G1 X83.240 Y79.576 E0.0947
G1 X83.181 Y79.703 E0.0988
G1 X83.100 Y79.812 E0.1028
G1 X82.994 Y79.922 E0.1073
G1 X82.901 Y79.994 E0.1107
G1 X82.799 Y80.045 E0.1141
; outer perimeter
G1 X82.963 Y80.455 F2700
G92 E0
G1 X82.793 Y80.507 E0.0052 F659
G1 X82.639 Y80.524 E0.0097
G1 X82.500 Y80.508 E0.0138
G1 X82.384 Y80.465 E0.0175
G1 X82.295 Y80.399 E0.0207
G1 X82.226 Y80.306 E0.0241
G1 X82.173 Y80.176 E0.0282
G1 X82.139 Y80.015 E0.0330
G1 X82.140 Y79.594 E0.0453
G1 X82.214 Y79.130 E0.0591
G1 X82.334 Y78.668 E0.0731
G1 X82.411 Y78.451 E0.0798
G1 X82.484 Y78.313 E0.0844
G1 X82.581 Y78.183 E0.0891
G1 X82.718 Y78.059 E0.0945
G1 X82.863 Y77.986 E0.0993
G1 X82.994 Y77.965 E0.1031
G1 X83.153 Y77.993 E0.1078
G1 X83.286 Y78.062 E0.1122
G1 X83.415 Y78.177 E0.1173
G1 X83.536 Y78.348 E0.1234
G1 X83.619 Y78.524 E0.1291
G1 X83.681 Y78.729 E0.1354
G1 X83.750 Y79.043 E0.1448
G1 X83.756 Y79.318 E0.1529
G1 X83.719 Y79.523 E0.1590
G1 X83.651 Y79.735 E0.1655
G1 X83.562 Y79.929 E0.1717
G1 X83.436 Y80.097 E0.1779
G1 X83.289 Y80.250 E0.1841
G1 X83.136 Y80.369 E0.1897
G1 X82.963 Y80.455 E0.1954
G92 E0
G1 E-5.2000 F5400
; inner perimeter
G1 X76.849 Y78.563 F2700
G1 E-0.1000 F5400
G92 E0
G1 X76.914 Y78.472 E0.0033 F1329
G1 X76.934 Y78.452 E0.0041
G1 X76.958 Y78.430 E0.0051
G1 X76.984 Y78.415 E0.0059
G1 X76.994 Y78.412 E0.0062
G1 X77.010 Y78.414 E0.0067
G1 X77.029 Y78.422 E0.0073
G1 X77.091 Y78.477 E0.0097
G1 X77.123 Y78.519 E0.0113
G1 X77.198 Y78.664 E0.0161
G1 X77.356 Y79.227 E0.0332
G1 X77.421 Y79.639 E0.0454
G1 X77.426 Y79.810 E0.0504
G1 X77.423 Y79.960 E0.0548
G1 X77.404 Y80.046 E0.0574
G1 X77.392 Y80.078 E0.0584
G1 X77.360 Y80.081 E0.0593
G1 X77.296 Y80.074 E0.0612
G1 X77.201 Y80.045 E0.0641
G1 X77.099 Y79.994 E0.0674
G1 X77.006 Y79.922 E0.0709
G1 X76.900 Y79.812 E0.0753
G1 X76.819 Y79.703 E0.0793
G1 X76.760 Y79.576 E0.0834
G1 X76.709 Y79.416 E0.0883
G1 X76.681 Y79.267 E0.0928
G1 X76.679 Y79.172 E0.0956
G1 X76.684 Y79.101 E0.0976
G1 X76.798 Y78.672 E0.1106
G1 X76.849 Y78.563 E0.1141
; outer perimeter
G1 X76.468 Y78.341 F2700
G92 E0
G1 X76.577 Y78.186 E0.0055 F659
G1 X76.633 Y78.131 E0.0078
G1 X76.697 Y78.073 E0.0104
G1 X76.813 Y78.005 E0.0143
G1 X76.954 Y77.968 E0.0186
G1 X77.117 Y77.981 E0.0234
G1 X77.257 Y78.041 E0.0278
G1 X77.283 Y78.058 E0.0287
G1 X77.414 Y78.177 E0.0339
G1 X77.496 Y78.282 E0.0378
G1 X77.609 Y78.502 E0.0450
G1 X77.787 Y79.133 E0.0642
G1 X77.860 Y79.597 E0.0780
G1 X77.867 Y79.809 E0.0842
G1 X77.861 Y80.012 E0.0901
G1 X77.827 Y80.175 E0.0950
G1 X77.774 Y80.306 E0.0991
G1 X77.705 Y80.399 E0.1025
G1 X77.616 Y80.465 E0.1058
G1 X77.500 Y80.508 E0.1094
G1 X77.361 Y80.524 E0.1135
G1 X77.207 Y80.507 E0.1180
G1 X77.037 Y80.455 E0.1232
G1 X76.864 Y80.369 E0.1289
G1 X76.711 Y80.250 E0.1346
G1 X76.564 Y80.097 E0.1408
G1 X76.438 Y79.929 E0.1469
G1 X76.349 Y79.735 E0.1532
G1 X76.281 Y79.523 E0.1597
G1 X76.242 Y79.313 E0.1659
G1 X76.239 Y79.163 E0.1703
G1 X76.248 Y79.030 E0.1742
G1 X76.383 Y78.520 E0.1897
G1 X76.468 Y78.341 E0.1955
; layer 143, Z = 22.832
M105
; inner perimeter
G1 X77.498 Y80.242 F2700
G1 Z22.832 F960
G92 E0
G1 X77.410 Y80.233 E0.0026 F1329
G1 X77.302 Y80.202 E0.0059
G1 X77.189 Y80.146 E0.0096
G1 X77.068 Y80.062 E0.0139
G1 X76.965 Y79.963 E0.0181
G1 X76.876 Y79.843 E0.0224
G1 X76.774 Y79.653 E0.0288
G1 X76.749 Y79.575 E0.0311
G1 X76.718 Y79.409 E0.0361
G1 X76.709 Y79.272 E0.0401
G1 X76.738 Y79.071 E0.0460
G1 X76.793 Y78.934 E0.0504
G1 X76.871 Y78.785 E0.0553
G1 X76.936 Y78.692 E0.0586
G1 X76.977 Y78.653 E0.0603
G1 X76.997 Y78.641 E0.0610
G1 X77.001 Y78.642 E0.0611
G1 X77.013 Y78.647 E0.0615
G1 X77.058 Y78.685 E0.0632
G1 X77.102 Y78.741 E0.0653
G1 X77.277 Y79.067 E0.0761
G1 X77.344 Y79.229 E0.0812
G1 X77.472 Y79.655 E0.0943
G1 X77.511 Y79.836 E0.0997
G1 X77.543 Y80.185 E0.1099
G1 X77.536 Y80.237 E0.1115
G1 X77.498 Y80.242 E0.1126
; outer perimeter
G1 X77.500 Y80.684 F2700
G92 E0
G1 X77.327 Y80.667 E0.0051 F659
G1 X77.142 Y80.614 E0.0107
G1 X76.965 Y80.526 E0.0165
G1 X76.788 Y80.403 E0.0228
G1 X76.633 Y80.254 E0.0291
G1 X76.504 Y80.080 E0.0355
G1 X76.367 Y79.825 E0.0439
G1 X76.321 Y79.683 E0.0483
G1 X76.280 Y79.464 E0.0548
G1 X76.267 Y79.254 E0.0610
G1 X76.310 Y78.957 E0.0698
G1 X76.393 Y78.749 E0.0763
G1 X76.494 Y78.556 E0.0827
G1 X76.602 Y78.403 E0.0882
G1 X76.712 Y78.298 E0.0926
G1 X76.838 Y78.225 E0.0969
G1 X76.955 Y78.196 E0.1004
G1 X77.110 Y78.209 E0.1050
G1 X77.248 Y78.269 E0.1094
G1 X77.251 Y78.271 E0.1095
G1 X77.378 Y78.380 E0.1144
G1 X77.471 Y78.500 E0.1188
G1 X77.675 Y78.878 E0.1314
G1 X77.759 Y79.081 E0.1378
G1 X77.899 Y79.546 E0.1520
G1 X77.947 Y79.770 E0.1587
G1 X77.986 Y80.194 E0.1712
G1 X77.966 Y80.346 E0.1757
G1 X77.919 Y80.469 E0.1795
G1 X77.855 Y80.558 E0.1827
G1 X77.764 Y80.624 E0.1861
G1 X77.647 Y80.668 E0.1897
G1 X77.500 Y80.684 E0.1940
G92 E0
G1 E-5.2000 F5400
; inner perimeter
G1 X82.528 Y79.655 F2700
G1 E-0.1000 F5400
G92 E0
G1 X82.656 Y79.229 E0.0130 F1329
G1 X82.723 Y79.066 E0.0182
G1 X82.891 Y78.754 E0.0286
G1 X82.953 Y78.675 E0.0315
G1 X82.999 Y78.638 E0.0332
G1 X83.012 Y78.645 E0.0336
G1 X83.070 Y78.699 E0.0360
G1 X83.127 Y78.781 E0.0389
G1 X83.193 Y78.910 E0.0431
G1 X83.245 Y79.028 E0.0469
G1 X83.272 Y79.113 E0.0495
G1 X83.288 Y79.221 E0.0527
G1 X83.281 Y79.418 E0.0585
G1 X83.253 Y79.567 E0.0629
G1 X83.206 Y79.701 E0.0671
G1 X83.129 Y79.836 E0.0716
G1 X83.035 Y79.963 E0.0762
G1 X82.932 Y80.062 E0.0804
G1 X82.811 Y80.146 E0.0847
G1 X82.698 Y80.202 E0.0884
G1 X82.590 Y80.233 E0.0917
G1 X82.502 Y80.242 E0.0943
G1 X82.464 Y80.237 E0.0954
G1 X82.455 Y80.174 E0.0973
G1 X82.463 Y80.034 E0.1014
G1 X82.487 Y79.846 E0.1069
G1 X82.528 Y79.655 E0.1126
; outer perimeter
G1 X82.101 Y79.546 F2700
G92 E0
G1 X82.241 Y79.081 E0.0142 F659
G1 X82.325 Y78.878 E0.0206
G1 X82.521 Y78.511 E0.0328
G1 X82.641 Y78.361 E0.0384
G1 X82.769 Y78.260 E0.0432
G1 X82.873 Y78.212 E0.0466
G1 X82.981 Y78.194 E0.0498
G1 X83.035 Y78.194 E0.0514
G1 X83.163 Y78.226 E0.0552
G1 X83.273 Y78.287 E0.0589
G1 X83.404 Y78.409 E0.0641
G1 X83.504 Y78.553 E0.0693
G1 X83.591 Y78.720 E0.0748
G1 X83.658 Y78.874 E0.0797
G1 X83.702 Y79.015 E0.0840
G1 X83.729 Y79.196 E0.0894
G1 X83.719 Y79.467 E0.0973
G1 X83.679 Y79.680 E0.1036
G1 X83.609 Y79.884 E0.1100
G1 X83.498 Y80.078 E0.1165
G1 X83.367 Y80.254 E0.1229
G1 X83.212 Y80.404 E0.1292
G1 X83.035 Y80.526 E0.1355
G1 X82.858 Y80.614 E0.1413
G1 X82.673 Y80.667 E0.1469
G1 X82.500 Y80.684 E0.1520
G1 X82.353 Y80.668 E0.1563
G1 X82.236 Y80.624 E0.1600
G1 X82.148 Y80.561 E0.1632
G1 X82.075 Y80.451 E0.1670
G1 X82.034 Y80.346 E0.1704
G1 X82.014 Y80.190 E0.1750
G1 X82.025 Y79.995 E0.1807
G1 X82.053 Y79.773 E0.1872
G1 X82.101 Y79.546 E0.1940
; layer 144, Z = 22.992
M105
; inner perimeter
G1 X83.243 Y79.266 F2700
G1 Z22.992 F960
G92 E0
G1 X83.252 Y79.407 E0.0041 F1329
G1 X83.243 Y79.552 E0.0084
G1 X83.210 Y79.689 E0.0125
G1 X83.148 Y79.835 E0.0172
G1 X83.042 Y80.012 E0.0232
G1 X82.969 Y80.095 E0.0264
G1 X82.839 Y80.212 E0.0316
G1 X82.714 Y80.295 E0.0360
G1 X82.575 Y80.357 E0.0404
G1 X82.449 Y80.392 E0.0442
G1 X82.338 Y80.402 E0.0475
G1 X82.291 Y80.397 E0.0489
G1 X82.353 Y80.080 E0.0584
G1 X82.377 Y80.018 E0.0603
G1 X82.502 Y79.648 E0.0717
G1 X82.674 Y79.268 E0.0839
G1 X82.850 Y79.008 E0.0931
G1 X83.003 Y78.874 E0.0991
G1 X83.014 Y78.880 E0.0995
G1 X83.061 Y78.921 E0.1013
G1 X83.175 Y79.060 E0.1065
G1 X83.215 Y79.148 E0.1094
G1 X83.243 Y79.266 E0.1129
; outer perimeter
G1 X83.679 Y79.200 F2700
G92 E0
G1 X83.693 Y79.406 E0.0060 F659
G1 X83.680 Y79.618 E0.0123
G1 X83.629 Y79.827 E0.0186
G1 X83.541 Y80.035 E0.0252
G1 X83.399 Y80.273 E0.0333
G1 X83.282 Y80.405 E0.0384
G1 X83.110 Y80.560 E0.0452
G1 X82.927 Y80.682 E0.0517
G1 X82.723 Y80.772 E0.0582
G1 X82.529 Y80.826 E0.0641
G1 X82.336 Y80.844 E0.0697
G1 X82.168 Y80.827 E0.0747
G1 X82.041 Y80.783 E0.0786
G1 X81.951 Y80.718 E0.0819
G1 X81.890 Y80.634 E0.0849
G1 X81.854 Y80.520 E0.0884
G1 X81.847 Y80.374 E0.0927
G1 X81.929 Y79.958 E0.1051
G1 X81.963 Y79.869 E0.1079
G1 X82.092 Y79.486 E0.1197
G1 X82.289 Y79.052 E0.1337
G1 X82.517 Y78.715 E0.1456
G1 X82.771 Y78.492 E0.1555
G1 X82.885 Y78.439 E0.1592
G1 X82.994 Y78.422 E0.1624
G1 X83.156 Y78.454 E0.1672
G1 X83.270 Y78.519 E0.1710
G1 X83.378 Y78.613 E0.1752
G1 X83.551 Y78.825 E0.1833
G1 X83.633 Y79.004 E0.1890
G1 X83.680 Y79.200 E0.1949
G92 E0
G1 E-5.2000 F5400
; inner perimeter
G1 X76.757 Y79.260 F2700
G1 E-0.1000 F5400
G92 E0
G1 X76.781 Y79.154 E0.0032 F1329
G1 X76.807 Y79.086 E0.0053
